(G-CODE GENERATED BY FLATCAM v8.994 - www.flatcam.org - Version Date: 2020/11/7)

(Name: sifra_slave10.gb0_iso_combined_cnc)
(Type: G-code from Geometry)
(Units: MM)

(Created on Wednesday, 22 February 2023 at 07:58)

(This preprocessor is the default preprocessor used by FlatCAM.)
(It is made to work with MACH3 compatible motion controllers.)

(TOOL DIAMETER: 0.1353 mm)
(Feedrate_XY: 200.0 mm/min)
(Feedrate_Z: 60.0 mm/min)
(Feedrate rapids 1500.0 mm/min)

(Z_Cut: -0.1001 mm)
(Z_Move: 3.000000000000001 mm)
(Z Start: None mm)
(Z End: 20.0 mm)
(X,Y End: None mm)
(Steps per circle: 64)
(Preprocessor Geometry: default)

(X range:    1.4394 ...   64.6006  mm)
(Y range:    1.8208 ...   64.6006  mm)

(Spindle Speed: 10000.0 RPM)
G21
G90
G94

G01 F200.00

M5
G00 Z15.0000
G00 X0.0000 Y0.0000
T2
M6    
(MSG, Change to Tool Dia = 0.1353)
M0
G00 Z15.0000

M03 S10000.0
G01 F200.00
G00 X1.8212 Y3.8266
G01 F60.00
G01 Z-0.1001
G01 F200.00
G01 X1.8208 Y3.8100
G01 X1.8212 Y3.7934
G01 X1.8291 Y3.6316
G01 X1.8303 Y3.6150
G01 X1.8324 Y3.5985
G01 X1.8561 Y3.4383
G01 X1.8590 Y3.4219
G01 X1.8626 Y3.4057
G01 X1.9020 Y3.2486
G01 X1.9064 Y3.2326
G01 X1.9116 Y3.2168
G01 X1.9662 Y3.0642
G01 X1.9722 Y3.0487
G01 X1.9789 Y3.0336
G01 X2.0482 Y2.8871
G01 X2.0556 Y2.8723
G01 X2.0638 Y2.8578
G01 X2.1471 Y2.7189
G01 X2.1560 Y2.7048
G01 X2.1656 Y2.6913
G01 X2.2621 Y2.5611
G01 X2.2723 Y2.5480
G01 X2.2831 Y2.5355
G01 X2.3919 Y2.4154
G01 X2.4034 Y2.4034
G01 X2.4154 Y2.3919
G01 X2.5355 Y2.2831
G01 X2.5480 Y2.2723
G01 X2.5611 Y2.2621
G01 X2.6913 Y2.1656
G01 X2.7048 Y2.1560
G01 X2.7189 Y2.1471
G01 X2.8578 Y2.0638
G01 X2.8723 Y2.0556
G01 X2.8871 Y2.0482
G01 X3.0336 Y1.9789
G01 X3.0487 Y1.9722
G01 X3.0642 Y1.9662
G01 X3.2168 Y1.9116
G01 X3.2326 Y1.9064
G01 X3.2486 Y1.9020
G01 X3.4057 Y1.8626
G01 X3.4219 Y1.8590
G01 X3.4383 Y1.8561
G01 X3.5985 Y1.8324
G01 X3.6150 Y1.8303
G01 X3.6316 Y1.8291
G01 X3.7934 Y1.8212
G01 X3.8100 Y1.8208
G01 X3.8266 Y1.8212
G01 X3.9884 Y1.8291
G01 X4.0050 Y1.8303
G01 X4.0215 Y1.8324
G01 X4.1817 Y1.8561
G01 X4.1981 Y1.8590
G01 X4.2143 Y1.8626
G01 X4.3714 Y1.9020
G01 X4.3874 Y1.9064
G01 X4.4032 Y1.9116
G01 X4.5558 Y1.9662
G01 X4.5713 Y1.9722
G01 X4.5864 Y1.9789
G01 X4.7329 Y2.0482
G01 X4.7477 Y2.0556
G01 X4.7622 Y2.0638
G01 X4.9011 Y2.1471
G01 X4.9152 Y2.1560
G01 X4.9287 Y2.1656
G01 X5.0589 Y2.2621
G01 X5.0720 Y2.2723
G01 X5.0845 Y2.2831
G01 X5.2046 Y2.3919
G01 X5.2166 Y2.4034
G01 X5.2281 Y2.4154
G01 X5.3369 Y2.5355
G01 X5.3477 Y2.5480
G01 X5.3579 Y2.5611
G01 X5.4544 Y2.6913
G01 X5.4640 Y2.7048
G01 X5.4729 Y2.7189
G01 X5.5562 Y2.8578
G01 X5.5644 Y2.8723
G01 X5.5718 Y2.8871
G01 X5.6411 Y3.0336
G01 X5.6478 Y3.0487
G01 X5.6538 Y3.0642
G01 X5.7084 Y3.2168
G01 X5.7136 Y3.2326
G01 X5.7180 Y3.2486
G01 X5.7574 Y3.4057
G01 X5.7610 Y3.4219
G01 X5.7639 Y3.4383
G01 X5.7876 Y3.5985
G01 X5.7897 Y3.6150
G01 X5.7909 Y3.6316
G01 X5.7988 Y3.7934
G01 X5.7992 Y3.8100
G01 X5.7988 Y3.8266
G01 X5.7909 Y3.9884
G01 X5.7897 Y4.0050
G01 X5.7876 Y4.0215
G01 X5.7639 Y4.1817
G01 X5.7610 Y4.1981
G01 X5.7574 Y4.2143
G01 X5.7180 Y4.3714
G01 X5.7136 Y4.3874
G01 X5.7084 Y4.4032
G01 X5.6538 Y4.5558
G01 X5.6478 Y4.5713
G01 X5.6411 Y4.5864
G01 X5.5718 Y4.7329
G01 X5.5644 Y4.7477
G01 X5.5562 Y4.7622
G01 X5.4729 Y4.9011
G01 X5.4640 Y4.9152
G01 X5.4544 Y4.9287
G01 X5.3579 Y5.0589
G01 X5.3477 Y5.0720
G01 X5.3369 Y5.0845
G01 X5.2281 Y5.2046
G01 X5.2166 Y5.2166
G01 X5.2046 Y5.2281
G01 X5.0845 Y5.3369
G01 X5.0720 Y5.3477
G01 X5.0589 Y5.3579
G01 X4.9287 Y5.4544
G01 X4.9152 Y5.4640
G01 X4.9011 Y5.4729
G01 X4.7622 Y5.5562
G01 X4.7477 Y5.5644
G01 X4.7329 Y5.5718
G01 X4.5864 Y5.6411
G01 X4.5713 Y5.6478
G01 X4.5558 Y5.6538
G01 X4.4032 Y5.7084
G01 X4.3874 Y5.7136
G01 X4.3714 Y5.7180
G01 X4.2143 Y5.7574
G01 X4.1981 Y5.7610
G01 X4.1817 Y5.7639
G01 X4.0215 Y5.7876
G01 X4.0050 Y5.7897
G01 X3.9884 Y5.7909
G01 X3.8266 Y5.7988
G01 X3.8100 Y5.7992
G01 X3.7934 Y5.7988
G01 X3.6316 Y5.7909
G01 X3.6150 Y5.7897
G01 X3.5985 Y5.7876
G01 X3.4383 Y5.7639
G01 X3.4219 Y5.7610
G01 X3.4057 Y5.7574
G01 X3.2486 Y5.7180
G01 X3.2326 Y5.7136
G01 X3.2168 Y5.7084
G01 X3.0642 Y5.6538
G01 X3.0487 Y5.6478
G01 X3.0336 Y5.6411
G01 X2.8871 Y5.5718
G01 X2.8723 Y5.5644
G01 X2.8578 Y5.5562
G01 X2.7189 Y5.4729
G01 X2.7048 Y5.4640
G01 X2.6913 Y5.4544
G01 X2.5611 Y5.3579
G01 X2.5480 Y5.3477
G01 X2.5355 Y5.3369
G01 X2.4154 Y5.2281
G01 X2.4034 Y5.2166
G01 X2.3919 Y5.2046
G01 X2.2831 Y5.0845
G01 X2.2723 Y5.0720
G01 X2.2621 Y5.0589
G01 X2.1656 Y4.9287
G01 X2.1560 Y4.9152
G01 X2.1471 Y4.9011
G01 X2.0638 Y4.7622
G01 X2.0556 Y4.7477
G01 X2.0482 Y4.7329
G01 X1.9789 Y4.5864
G01 X1.9722 Y4.5713
G01 X1.9662 Y4.5558
G01 X1.9116 Y4.4032
G01 X1.9064 Y4.3874
G01 X1.9020 Y4.3714
G01 X1.8626 Y4.2143
G01 X1.8590 Y4.1981
G01 X1.8561 Y4.1817
G01 X1.8324 Y4.0215
G01 X1.8303 Y4.0050
G01 X1.8291 Y3.9884
G01 X1.8212 Y3.8266
G00 Z3.0000
G00 X1.9563 Y3.8200
G01 F60.00
G01 Z-0.1001
G01 F200.00
G01 X1.9563 Y3.8000
G01 X1.9650 Y3.6283
G01 X1.9917 Y3.4483
G01 X2.0359 Y3.2718
G01 X2.0972 Y3.1005
G01 X2.1750 Y2.9361
G01 X2.2685 Y2.7800
G01 X2.3769 Y2.6339
G01 X2.4991 Y2.4991
G01 X2.6339 Y2.3769
G01 X2.7800 Y2.2685
G01 X2.9361 Y2.1750
G01 X3.1005 Y2.0972
G01 X3.2718 Y2.0359
G01 X3.4483 Y1.9917
G01 X3.6283 Y1.9650
G01 X3.8100 Y1.9561
G01 X3.9917 Y1.9650
G01 X4.1717 Y1.9917
G01 X4.3482 Y2.0359
G01 X4.5195 Y2.0972
G01 X4.6839 Y2.1750
G01 X4.8400 Y2.2685
G01 X4.9861 Y2.3769
G01 X5.1209 Y2.4991
G01 X5.2431 Y2.6339
G01 X5.3515 Y2.7800
G01 X5.4450 Y2.9361
G01 X5.5228 Y3.1005
G01 X5.5841 Y3.2718
G01 X5.6283 Y3.4483
G01 X5.6550 Y3.6283
G01 X5.6639 Y3.8100
G01 X5.6550 Y3.9917
G01 X5.6283 Y4.1717
G01 X5.5841 Y4.3482
G01 X5.5228 Y4.5195
G01 X5.4450 Y4.6839
G01 X5.3515 Y4.8400
G01 X5.2431 Y4.9861
G01 X5.1209 Y5.1209
G01 X4.9861 Y5.2431
G01 X4.8400 Y5.3515
G01 X4.6839 Y5.4450
G01 X4.5195 Y5.5228
G01 X4.3482 Y5.5841
G01 X4.1717 Y5.6283
G01 X3.9917 Y5.6550
G01 X3.8100 Y5.6639
G01 X3.6283 Y5.6550
G01 X3.4483 Y5.6283
G01 X3.2718 Y5.5841
G01 X3.1005 Y5.5228
G01 X2.9361 Y5.4450
G01 X2.7800 Y5.3515
G01 X2.6339 Y5.2431
G01 X2.4991 Y5.1209
G01 X2.3769 Y4.9861
G01 X2.2685 Y4.8400
G01 X2.1750 Y4.6839
G01 X2.0972 Y4.5195
G01 X2.0359 Y4.3482
G01 X1.9917 Y4.1717
G01 X1.9650 Y3.9917
G01 X1.9563 Y3.8200
G00 Z3.0000
G00 X2.0914 Y3.8133
G01 F60.00
G01 Z-0.1001
G01 F200.00
G01 X2.0914 Y3.8067
G01 X2.0996 Y3.6415
G01 X2.1244 Y3.4747
G01 X2.1654 Y3.3111
G01 X2.2222 Y3.1523
G01 X2.2943 Y2.9998
G01 X2.3810 Y2.8552
G01 X2.4815 Y2.7197
G01 X2.5947 Y2.5947
G01 X2.7197 Y2.4815
G01 X2.8552 Y2.3810
G01 X2.9998 Y2.2943
G01 X3.1523 Y2.2222
G01 X3.3111 Y2.1654
G01 X3.4747 Y2.1244
G01 X3.6415 Y2.0996
G01 X3.8100 Y2.0914
G01 X3.9785 Y2.0996
G01 X4.1453 Y2.1244
G01 X4.3089 Y2.1654
G01 X4.4677 Y2.2222
G01 X4.6202 Y2.2943
G01 X4.7648 Y2.3810
G01 X4.9003 Y2.4815
G01 X5.0253 Y2.5947
G01 X5.1385 Y2.7197
G01 X5.2390 Y2.8552
G01 X5.3257 Y2.9998
G01 X5.3978 Y3.1523
G01 X5.4546 Y3.3111
G01 X5.4956 Y3.4747
G01 X5.5204 Y3.6415
G01 X5.5286 Y3.8100
G01 X5.5204 Y3.9785
G01 X5.4956 Y4.1453
G01 X5.4546 Y4.3089
G01 X5.3978 Y4.4677
G01 X5.3257 Y4.6202
G01 X5.2390 Y4.7648
G01 X5.1385 Y4.9003
G01 X5.0253 Y5.0253
G01 X4.9003 Y5.1385
G01 X4.7648 Y5.2390
G01 X4.6202 Y5.3257
G01 X4.4677 Y5.3978
G01 X4.3089 Y5.4546
G01 X4.1453 Y5.4956
G01 X3.9785 Y5.5204
G01 X3.8100 Y5.5286
G01 X3.6415 Y5.5204
G01 X3.4747 Y5.4956
G01 X3.3111 Y5.4546
G01 X3.1523 Y5.3978
G01 X2.9998 Y5.3257
G01 X2.8552 Y5.2390
G01 X2.7197 Y5.1385
G01 X2.5947 Y5.0253
G01 X2.4815 Y4.9003
G01 X2.3810 Y4.7648
G01 X2.2943 Y4.6202
G01 X2.2222 Y4.4677
G01 X2.1654 Y4.3089
G01 X2.1244 Y4.1453
G01 X2.0996 Y3.9785
G01 X2.0914 Y3.8133
G00 Z3.0000
G00 X10.7112 Y8.9066
G01 F60.00
G01 Z-0.1001
G01 F200.00
G01 X10.7108 Y8.8900
G01 X10.7112 Y8.8734
G01 X10.7191 Y8.7116
G01 X10.7203 Y8.6950
G01 X10.7224 Y8.6785
G01 X10.7461 Y8.5183
G01 X10.7490 Y8.5019
G01 X10.7526 Y8.4857
G01 X10.7920 Y8.3286
G01 X10.7964 Y8.3126
G01 X10.8016 Y8.2968
G01 X10.8562 Y8.1442
G01 X10.8622 Y8.1287
G01 X10.8689 Y8.1136
G01 X10.9382 Y7.9671
G01 X10.9456 Y7.9523
G01 X10.9538 Y7.9378
G01 X11.0371 Y7.7989
G01 X11.0460 Y7.7848
G01 X11.0556 Y7.7713
G01 X11.1521 Y7.6411
G01 X11.1623 Y7.6280
G01 X11.1731 Y7.6155
G01 X11.2819 Y7.4954
G01 X11.2934 Y7.4834
G01 X11.3054 Y7.4719
G01 X11.4255 Y7.3631
G01 X11.4380 Y7.3523
G01 X11.4511 Y7.3421
G01 X11.5813 Y7.2456
G01 X11.5948 Y7.2360
G01 X11.6089 Y7.2271
G01 X11.7478 Y7.1438
G01 X11.7623 Y7.1356
G01 X11.7771 Y7.1282
G01 X11.9236 Y7.0589
G01 X11.9387 Y7.0522
G01 X11.9542 Y7.0462
G01 X12.1068 Y6.9916
G01 X12.1226 Y6.9864
G01 X12.1386 Y6.9820
G01 X12.2957 Y6.9426
G01 X12.3119 Y6.9390
G01 X12.3283 Y6.9361
G01 X12.4885 Y6.9124
G01 X12.5050 Y6.9103
G01 X12.5216 Y6.9091
G01 X12.6834 Y6.9012
G01 X12.7000 Y6.9008
G01 X12.7166 Y6.9012
G01 X12.8784 Y6.9091
G01 X12.8950 Y6.9103
G01 X12.9115 Y6.9124
G01 X13.0717 Y6.9361
G01 X13.0881 Y6.9390
G01 X13.1043 Y6.9426
G01 X13.2614 Y6.9820
G01 X13.2774 Y6.9864
G01 X13.2932 Y6.9916
G01 X13.4458 Y7.0462
G01 X13.4613 Y7.0522
G01 X13.4764 Y7.0589
G01 X13.6229 Y7.1282
G01 X13.6377 Y7.1356
G01 X13.6522 Y7.1438
G01 X13.7911 Y7.2271
G01 X13.8052 Y7.2360
G01 X13.8187 Y7.2456
G01 X13.9489 Y7.3421
G01 X13.9620 Y7.3523
G01 X13.9745 Y7.3631
G01 X14.0946 Y7.4719
G01 X14.1066 Y7.4834
G01 X14.1181 Y7.4954
G01 X14.2269 Y7.6155
G01 X14.2377 Y7.6280
G01 X14.2479 Y7.6411
G01 X14.3444 Y7.7713
G01 X14.3540 Y7.7848
G01 X14.3629 Y7.7989
G01 X14.4462 Y7.9378
G01 X14.4544 Y7.9523
G01 X14.4618 Y7.9671
G01 X14.5311 Y8.1136
G01 X14.5378 Y8.1287
G01 X14.5438 Y8.1442
G01 X14.5984 Y8.2968
G01 X14.6036 Y8.3126
G01 X14.6080 Y8.3286
G01 X14.6474 Y8.4857
G01 X14.6510 Y8.5019
G01 X14.6539 Y8.5183
G01 X14.6776 Y8.6785
G01 X14.6797 Y8.6950
G01 X14.6809 Y8.7116
G01 X14.6888 Y8.8734
G01 X14.6892 Y8.8900
G01 X14.6888 Y8.9066
G01 X14.6809 Y9.0684
G01 X14.6797 Y9.0850
G01 X14.6776 Y9.1015
G01 X14.6539 Y9.2617
G01 X14.6510 Y9.2781
G01 X14.6474 Y9.2943
G01 X14.6080 Y9.4514
G01 X14.6036 Y9.4674
G01 X14.5984 Y9.4832
G01 X14.5438 Y9.6358
G01 X14.5378 Y9.6513
G01 X14.5311 Y9.6664
G01 X14.4618 Y9.8129
G01 X14.4544 Y9.8277
G01 X14.4462 Y9.8422
G01 X14.3629 Y9.9811
G01 X14.3540 Y9.9952
G01 X14.3444 Y10.0087
G01 X14.2479 Y10.1389
G01 X14.2377 Y10.1520
G01 X14.2269 Y10.1645
G01 X14.1181 Y10.2846
G01 X14.1066 Y10.2966
G01 X14.0946 Y10.3081
G01 X13.9745 Y10.4169
G01 X13.9620 Y10.4277
G01 X13.9489 Y10.4379
G01 X13.8187 Y10.5344
G01 X13.8052 Y10.5440
G01 X13.7911 Y10.5529
G01 X13.6522 Y10.6362
G01 X13.6377 Y10.6444
G01 X13.6229 Y10.6518
G01 X13.4764 Y10.7211
G01 X13.4613 Y10.7278
G01 X13.4458 Y10.7338
G01 X13.2932 Y10.7884
G01 X13.2774 Y10.7936
G01 X13.2614 Y10.7980
G01 X13.1043 Y10.8374
G01 X13.0881 Y10.8410
G01 X13.0717 Y10.8439
G01 X12.9115 Y10.8676
G01 X12.8950 Y10.8697
G01 X12.8784 Y10.8709
G01 X12.7166 Y10.8788
G01 X12.7000 Y10.8792
G01 X12.6834 Y10.8788
G01 X12.5216 Y10.8709
G01 X12.5050 Y10.8697
G01 X12.4885 Y10.8676
G01 X12.3283 Y10.8439
G01 X12.3119 Y10.8410
G01 X12.2957 Y10.8374
G01 X12.1386 Y10.7980
G01 X12.1226 Y10.7936
G01 X12.1068 Y10.7884
G01 X11.9542 Y10.7338
G01 X11.9387 Y10.7278
G01 X11.9236 Y10.7211
G01 X11.7771 Y10.6518
G01 X11.7623 Y10.6444
G01 X11.7478 Y10.6362
G01 X11.6089 Y10.5529
G01 X11.5948 Y10.5440
G01 X11.5813 Y10.5344
G01 X11.4511 Y10.4379
G01 X11.4380 Y10.4277
G01 X11.4255 Y10.4169
G01 X11.3054 Y10.3081
G01 X11.2934 Y10.2966
G01 X11.2819 Y10.2846
G01 X11.1731 Y10.1645
G01 X11.1623 Y10.1520
G01 X11.1521 Y10.1389
G01 X11.0556 Y10.0087
G01 X11.0460 Y9.9952
G01 X11.0371 Y9.9811
G01 X10.9538 Y9.8422
G01 X10.9456 Y9.8277
G01 X10.9382 Y9.8129
G01 X10.8689 Y9.6664
G01 X10.8622 Y9.6513
G01 X10.8562 Y9.6358
G01 X10.8016 Y9.4832
G01 X10.7964 Y9.4674
G01 X10.7920 Y9.4514
G01 X10.7526 Y9.2943
G01 X10.7490 Y9.2781
G01 X10.7461 Y9.2617
G01 X10.7224 Y9.1015
G01 X10.7203 Y9.0850
G01 X10.7191 Y9.0684
G01 X10.7112 Y8.9066
G00 Z3.0000
G00 X10.8463 Y8.9000
G01 F60.00
G01 Z-0.1001
G01 F200.00
G01 X10.8463 Y8.8800
G01 X10.8550 Y8.7083
G01 X10.8817 Y8.5283
G01 X10.9259 Y8.3518
G01 X10.9872 Y8.1805
G01 X11.0650 Y8.0161
G01 X11.1585 Y7.8600
G01 X11.2669 Y7.7139
G01 X11.3891 Y7.5791
G01 X11.5239 Y7.4569
G01 X11.6700 Y7.3485
G01 X11.8261 Y7.2550
G01 X11.9905 Y7.1772
G01 X12.1618 Y7.1159
G01 X12.3383 Y7.0717
G01 X12.5183 Y7.0450
G01 X12.7000 Y7.0361
G01 X12.8817 Y7.0450
G01 X13.0617 Y7.0717
G01 X13.2382 Y7.1159
G01 X13.4095 Y7.1772
G01 X13.5739 Y7.2550
G01 X13.7300 Y7.3485
G01 X13.8761 Y7.4569
G01 X14.0109 Y7.5791
G01 X14.1331 Y7.7139
G01 X14.2415 Y7.8600
G01 X14.3350 Y8.0161
G01 X14.4128 Y8.1805
G01 X14.4741 Y8.3518
G01 X14.5183 Y8.5283
G01 X14.5450 Y8.7083
G01 X14.5539 Y8.8900
G01 X14.5450 Y9.0717
G01 X14.5183 Y9.2517
G01 X14.4741 Y9.4282
G01 X14.4128 Y9.5995
G01 X14.3350 Y9.7639
G01 X14.2415 Y9.9200
G01 X14.1331 Y10.0661
G01 X14.0109 Y10.2009
G01 X13.8761 Y10.3231
G01 X13.7300 Y10.4315
G01 X13.5739 Y10.5250
G01 X13.4095 Y10.6028
G01 X13.2382 Y10.6641
G01 X13.0617 Y10.7083
G01 X12.8817 Y10.7350
G01 X12.7000 Y10.7439
G01 X12.5183 Y10.7350
G01 X12.3383 Y10.7083
G01 X12.1618 Y10.6641
G01 X11.9905 Y10.6028
G01 X11.8261 Y10.5250
G01 X11.6700 Y10.4315
G01 X11.5239 Y10.3231
G01 X11.3891 Y10.2009
G01 X11.2669 Y10.0661
G01 X11.1585 Y9.9200
G01 X11.0650 Y9.7639
G01 X10.9872 Y9.5995
G01 X10.9259 Y9.4282
G01 X10.8817 Y9.2517
G01 X10.8550 Y9.0717
G01 X10.8463 Y8.9000
G00 Z3.0000
G00 X10.9814 Y8.8933
G01 F60.00
G01 Z-0.1001
G01 F200.00
G01 X10.9814 Y8.8867
G01 X10.9896 Y8.7215
G01 X11.0144 Y8.5547
G01 X11.0554 Y8.3911
G01 X11.1122 Y8.2323
G01 X11.1843 Y8.0798
G01 X11.2710 Y7.9352
G01 X11.3715 Y7.7997
G01 X11.4847 Y7.6747
G01 X11.6097 Y7.5615
G01 X11.7452 Y7.4610
G01 X11.8898 Y7.3743
G01 X12.0423 Y7.3022
G01 X12.2011 Y7.2454
G01 X12.3647 Y7.2044
G01 X12.5315 Y7.1796
G01 X12.7000 Y7.1714
G01 X12.8685 Y7.1796
G01 X13.0353 Y7.2044
G01 X13.1989 Y7.2454
G01 X13.3577 Y7.3022
G01 X13.5102 Y7.3743
G01 X13.6548 Y7.4610
G01 X13.7903 Y7.5615
G01 X13.9153 Y7.6747
G01 X14.0285 Y7.7997
G01 X14.1290 Y7.9352
G01 X14.2157 Y8.0798
G01 X14.2878 Y8.2323
G01 X14.3446 Y8.3911
G01 X14.3856 Y8.5547
G01 X14.4104 Y8.7215
G01 X14.4186 Y8.8900
G01 X14.4104 Y9.0585
G01 X14.3856 Y9.2253
G01 X14.3446 Y9.3889
G01 X14.2878 Y9.5477
G01 X14.2157 Y9.7002
G01 X14.1290 Y9.8448
G01 X14.0285 Y9.9803
G01 X13.9153 Y10.1053
G01 X13.7903 Y10.2185
G01 X13.6548 Y10.3190
G01 X13.5102 Y10.4057
G01 X13.3577 Y10.4778
G01 X13.1989 Y10.5346
G01 X13.0353 Y10.5756
G01 X12.8685 Y10.6004
G01 X12.7000 Y10.6086
G01 X12.5315 Y10.6004
G01 X12.3647 Y10.5756
G01 X12.2011 Y10.5346
G01 X12.0423 Y10.4778
G01 X11.8898 Y10.4057
G01 X11.7452 Y10.3190
G01 X11.6097 Y10.2185
G01 X11.4847 Y10.1053
G01 X11.3715 Y9.9803
G01 X11.2710 Y9.8448
G01 X11.1843 Y9.7002
G01 X11.1122 Y9.5477
G01 X11.0554 Y9.3889
G01 X11.0144 Y9.2253
G01 X10.9896 Y9.0585
G01 X10.9814 Y8.8933
G00 Z3.0000
G00 X11.1456 Y17.3995
G01 F60.00
G01 Z-0.1001
G01 F200.00
G01 X11.0727 Y17.4255
G01 X10.9816 Y17.4483
G01 X10.8888 Y17.4620
G01 X10.7983 Y17.4666
G01 X9.5233 Y17.4666
G01 X9.4345 Y17.4623
G01 X9.4279 Y17.4616
G01 X9.3384 Y17.4483
G01 X9.2505 Y17.4263
G01 X9.2441 Y17.4244
G01 X9.1589 Y17.3938
G01 X9.0740 Y17.3537
G01 X8.9935 Y17.3054
G01 X8.9181 Y17.2495
G01 X8.8485 Y17.1865
G01 X8.7855 Y17.1169
G01 X8.7296 Y17.0415
G01 X8.6813 Y16.9610
G01 X8.6412 Y16.8761
G01 X8.6095 Y16.7877
G01 X8.5867 Y16.6966
G01 X8.5730 Y16.6038
G01 X8.5684 Y16.5100
G01 X8.5730 Y16.4162
G01 X8.5867 Y16.3234
G01 X8.6095 Y16.2323
G01 X8.6412 Y16.1439
G01 X8.6813 Y16.0590
G01 X8.7296 Y15.9785
G01 X8.7835 Y15.9057
G01 X8.7877 Y15.9006
G01 X8.8485 Y15.8335
G01 X8.9156 Y15.7727
G01 X8.9207 Y15.7685
G01 X8.9935 Y15.7146
G01 X9.0740 Y15.6663
G01 X9.1559 Y15.6275
G01 X9.1620 Y15.6250
G01 X9.2473 Y15.5945
G01 X9.3351 Y15.5725
G01 X9.3416 Y15.5712
G01 X9.4296 Y15.5581
G01 X9.5250 Y15.5534
G01 X10.7950 Y15.5534
G01 X10.8871 Y15.5578
G01 X10.9816 Y15.5717
G01 X11.0743 Y15.5950
G01 X11.1626 Y15.6268
G01 X11.2445 Y15.6655
G01 X11.2689 Y15.6800
G01 X11.4317 Y15.6800
G01 X11.5114 Y15.6840
G01 X11.5919 Y15.6959
G01 X11.6677 Y15.7148
G01 X11.6741 Y15.7168
G01 X11.7476 Y15.7432
G01 X11.8183 Y15.7765
G01 X11.8242 Y15.7796
G01 X11.8911 Y15.8199
G01 X11.9539 Y15.8663
G01 X11.9591 Y15.8705
G01 X12.0145 Y15.9208
G01 X13.2869 Y17.1931
G01 X13.3416 Y17.2534
G01 X13.3901 Y17.3189
G01 X13.4304 Y17.3858
G01 X13.4335 Y17.3917
G01 X13.4655 Y17.4593
G01 X13.4680 Y17.4655
G01 X13.4943 Y17.5391
G01 X13.5141 Y17.6181
G01 X13.5260 Y17.6986
G01 X13.5299 Y17.7767
G01 X13.5300 Y22.0300
G01 X17.4362 Y22.0300
G01 X21.0043 Y18.4619
G01 X21.0609 Y18.4105
G01 X21.0661 Y18.4063
G01 X21.1289 Y18.3599
G01 X21.1958 Y18.3196
G01 X21.2017 Y18.3165
G01 X21.2724 Y18.2832
G01 X21.3491 Y18.2557
G01 X21.4281 Y18.2359
G01 X21.5053 Y18.2244
G01 X21.5120 Y18.2237
G01 X21.5900 Y18.2200
G01 X30.1362 Y18.2200
G01 X30.8767 Y17.4795
G01 X30.8495 Y17.4339
G01 X30.8082 Y17.3464
G01 X30.7733 Y17.2490
G01 X30.7502 Y17.1568
G01 X30.7489 Y17.1502
G01 X30.7348 Y17.0545
G01 X30.7299 Y16.9578
G01 X30.7299 Y16.0655
G01 X30.7345 Y15.9688
G01 X30.7352 Y15.9622
G01 X30.7489 Y15.8698
G01 X30.7502 Y15.8632
G01 X30.7738 Y15.7694
G01 X30.8082 Y15.6736
G01 X30.8488 Y15.5876
G01 X30.8519 Y15.5817
G01 X30.9018 Y15.4987
G01 X30.9594 Y15.4209
G01 X30.9636 Y15.4158
G01 X31.0286 Y15.3441
G01 X31.1028 Y15.2769
G01 X31.1832 Y15.2173
G01 X31.2662 Y15.1674
G01 X31.2721 Y15.1643
G01 X31.3596 Y15.1230
G01 X31.4507 Y15.0903
G01 X31.4571 Y15.0884
G01 X31.5510 Y15.0650
G01 X31.6500 Y15.0503
G01 X31.7467 Y15.0454
G01 X31.7533 Y15.0454
G01 X31.8467 Y15.0500
G01 X31.8533 Y15.0507
G01 X31.9490 Y15.0650
G01 X32.0461 Y15.0893
G01 X32.1404 Y15.1230
G01 X32.2309 Y15.1658
G01 X32.3168 Y15.2173
G01 X32.3972 Y15.2769
G01 X32.4714 Y15.3441
G01 X32.5364 Y15.4158
G01 X32.5406 Y15.4209
G01 X32.5982 Y15.4987
G01 X32.6481 Y15.5817
G01 X32.6512 Y15.5876
G01 X32.6911 Y15.6721
G01 X32.6943 Y15.6800
G01 X49.1862 Y15.6800
G01 X50.2143 Y14.6519
G01 X50.2734 Y14.5984
G01 X50.3389 Y14.5499
G01 X50.4087 Y14.5080
G01 X50.4839 Y14.4725
G01 X50.5559 Y14.4468
G01 X50.5623 Y14.4448
G01 X50.6381 Y14.4259
G01 X50.7170 Y14.4142
G01 X50.7983 Y14.4100
G01 X50.9611 Y14.4100
G01 X50.9855 Y14.3955
G01 X51.0674 Y14.3568
G01 X51.1557 Y14.3250
G01 X51.2484 Y14.3017
G01 X51.3429 Y14.2878
G01 X51.4350 Y14.2834
G01 X52.7050 Y14.2834
G01 X52.7988 Y14.2880
G01 X52.8916 Y14.3017
G01 X52.9827 Y14.3245
G01 X53.0711 Y14.3562
G01 X53.1560 Y14.3963
G01 X53.2365 Y14.4446
G01 X53.3119 Y14.5005
G01 X53.3790 Y14.5613
G01 X53.3837 Y14.5660
G01 X53.4445 Y14.6331
G01 X53.4985 Y14.7058
G01 X53.5022 Y14.7113
G01 X53.5471 Y14.7862
G01 X53.5502 Y14.7920
G01 X53.5888 Y14.8739
G01 X53.6205 Y14.9623
G01 X53.6433 Y15.0534
G01 X53.6566 Y15.1429
G01 X53.6573 Y15.1495
G01 X53.6616 Y15.2400
G01 X53.6573 Y15.3305
G01 X53.6566 Y15.3371
G01 X53.6433 Y15.4266
G01 X53.6213 Y15.5145
G01 X53.6194 Y15.5209
G01 X53.5888 Y15.6061
G01 X53.5487 Y15.6910
G01 X53.5022 Y15.7687
G01 X53.4985 Y15.7742
G01 X53.4445 Y15.8469
G01 X53.3815 Y15.9165
G01 X53.3144 Y15.9773
G01 X53.3093 Y15.9815
G01 X53.2365 Y16.0354
G01 X53.1560 Y16.0837
G01 X53.0711 Y16.1238
G01 X52.9859 Y16.1544
G01 X52.9795 Y16.1563
G01 X52.8916 Y16.1783
G01 X52.8021 Y16.1916
G01 X52.7955 Y16.1923
G01 X52.7067 Y16.1966
G01 X51.4317 Y16.1966
G01 X51.3412 Y16.1920
G01 X51.2484 Y16.1783
G01 X51.1573 Y16.1555
G01 X51.0844 Y16.1295
G01 X50.1169 Y17.0969
G01 X50.0578 Y17.1506
G01 X49.9939 Y17.1982
G01 X49.9883 Y17.2019
G01 X49.9213 Y17.2420
G01 X49.8507 Y17.2755
G01 X49.8445 Y17.2780
G01 X49.7709 Y17.3043
G01 X49.6952 Y17.3234
G01 X49.6887 Y17.3246
G01 X49.6114 Y17.3360
G01 X49.5300 Y17.3400
G01 X32.6943 Y17.3400
G01 X32.6911 Y17.3479
G01 X32.6489 Y17.4368
G01 X32.5991 Y17.5199
G01 X32.5800 Y17.5459
G01 X32.5800 Y17.7817
G01 X32.5762 Y17.8597
G01 X32.5641 Y17.9419
G01 X32.5443 Y18.0209
G01 X32.5168 Y18.0976
G01 X32.4820 Y18.1713
G01 X32.4401 Y18.2411
G01 X32.3916 Y18.3066
G01 X32.3369 Y18.3669
G01 X31.0669 Y19.6369
G01 X31.0091 Y19.6895
G01 X31.0039 Y19.6937
G01 X30.9411 Y19.7401
G01 X30.8742 Y19.7804
G01 X30.8683 Y19.7835
G01 X30.7976 Y19.8168
G01 X30.7241 Y19.8432
G01 X30.7177 Y19.8452
G01 X30.6436 Y19.8637
G01 X30.5614 Y19.8760
G01 X30.4800 Y19.8800
G01 X21.9338 Y19.8800
G01 X18.3657 Y23.4481
G01 X18.3066 Y23.5016
G01 X18.2411 Y23.5501
G01 X18.1713 Y23.5920
G01 X18.1007 Y23.6255
G01 X18.0945 Y23.6280
G01 X18.0241 Y23.6532
G01 X18.0177 Y23.6552
G01 X17.9419 Y23.6741
G01 X17.8647 Y23.6856
G01 X17.8580 Y23.6863
G01 X17.7800 Y23.6900
G01 X13.3960 Y23.6900
G01 X13.3848 Y23.6997
G01 X13.3048 Y23.7591
G01 X13.2992 Y23.7628
G01 X13.2108 Y23.8157
G01 X13.1177 Y23.8598
G01 X13.1116 Y23.8624
G01 X13.0146 Y23.8970
G01 X12.9114 Y23.9228
G01 X12.8062 Y23.9384
G01 X12.7000 Y23.9436
G01 X12.5938 Y23.9384
G01 X12.4886 Y23.9228
G01 X12.3854 Y23.8970
G01 X12.2853 Y23.8612
G01 X12.1892 Y23.8157
G01 X12.0980 Y23.7610
G01 X12.0125 Y23.6977
G01 X11.9349 Y23.6274
G01 X11.8623 Y23.5475
G01 X11.7990 Y23.4620
G01 X11.7443 Y23.3708
G01 X11.6988 Y23.2747
G01 X11.6630 Y23.1746
G01 X11.6372 Y23.0714
G01 X11.6216 Y22.9662
G01 X11.6164 Y22.8600
G01 X11.6216 Y22.7538
G01 X11.6372 Y22.6486
G01 X11.6630 Y22.5454
G01 X11.6976 Y22.4484
G01 X11.7002 Y22.4423
G01 X11.7443 Y22.3492
G01 X11.7972 Y22.2608
G01 X11.8009 Y22.2552
G01 X11.8603 Y22.1752
G01 X11.8700 Y22.1640
G01 X11.8700 Y18.1238
G01 X11.1456 Y17.3995
G00 Z3.0000
G00 X11.7347 Y19.6042
G01 F60.00
G01 Z-0.1001
G01 F200.00
G01 X11.7347 Y22.1174
G01 X11.6922 Y22.1746
G01 X11.6838 Y22.1870
G01 X11.6299 Y22.2767
G01 X11.6227 Y22.2898
G01 X11.5738 Y22.3935
G01 X11.5367 Y22.4967
G01 X11.5322 Y22.5109
G01 X11.5045 Y22.6222
G01 X11.4869 Y22.7405
G01 X11.4811 Y22.8600
G01 X11.4865 Y22.9745
G01 X11.4881 Y22.9894
G01 X11.5045 Y23.0978
G01 X11.5335 Y23.2138
G01 X11.5738 Y23.3265
G01 X11.6205 Y23.4257
G01 X11.6299 Y23.4433
G01 X11.6865 Y23.5372
G01 X11.7516 Y23.6254
G01 X11.7642 Y23.6408
G01 X11.8312 Y23.7147
G01 X11.8453 Y23.7288
G01 X11.9267 Y23.8023
G01 X12.0187 Y23.8707
G01 X12.0312 Y23.8788
G01 X12.1167 Y23.9301
G01 X12.1343 Y23.9395
G01 X12.2335 Y23.9862
G01 X12.3462 Y24.0265
G01 X12.4622 Y24.0555
G01 X12.5706 Y24.0719
G01 X12.5905 Y24.0738
G01 X12.7000 Y24.0789
G01 X12.8195 Y24.0731
G01 X12.9280 Y24.0572
G01 X12.9475 Y24.0533
G01 X13.0442 Y24.0291
G01 X13.0586 Y24.0250
G01 X13.1665 Y23.9862
G01 X13.2746 Y23.9350
G01 X13.3772 Y23.8735
G01 X13.4426 Y23.8253
G01 X17.7800 Y23.8253
G01 X17.8647 Y23.8214
G01 X17.8796 Y23.8201
G01 X17.9683 Y23.8068
G01 X18.0506 Y23.7864
G01 X18.0697 Y23.7806
G01 X18.1401 Y23.7554
G01 X18.1585 Y23.7478
G01 X18.2351 Y23.7113
G01 X18.3163 Y23.6626
G01 X18.3924 Y23.6062
G01 X18.4554 Y23.5495
G01 X21.9899 Y20.0153
G01 X30.4800 Y20.0153
G01 X30.5746 Y20.0107
G01 X30.6585 Y19.9985
G01 X30.6732 Y19.9957
G01 X30.7506 Y19.9764
G01 X30.7697 Y19.9706
G01 X30.8494 Y19.9418
G01 X30.9262 Y19.9058
G01 X30.9437 Y19.8964
G01 X31.0163 Y19.8526
G01 X31.0845 Y19.8023
G01 X31.0962 Y19.7930
G01 X31.1626 Y19.7326
G01 X32.4326 Y18.4626
G01 X32.4962 Y18.3924
G01 X32.5526 Y18.3163
G01 X32.6013 Y18.2351
G01 X32.6418 Y18.1494
G01 X32.6738 Y18.0602
G01 X32.6968 Y17.9683
G01 X32.7107 Y17.8746
G01 X32.7153 Y17.7850
G01 X32.7153 Y17.5892
G01 X32.7666 Y17.5035
G01 X32.7713 Y17.4948
G01 X32.7806 Y17.4753
G01 X49.5300 Y17.4753
G01 X49.6246 Y17.4707
G01 X49.7134 Y17.4577
G01 X49.7280 Y17.4546
G01 X49.8102 Y17.4338
G01 X49.8901 Y17.4054
G01 X49.9085 Y17.3978
G01 X49.9851 Y17.3613
G01 X50.0579 Y17.3180
G01 X50.0745 Y17.3069
G01 X50.1424 Y17.2562
G01 X50.2126 Y17.1926
G01 X51.1198 Y16.2854
G01 X51.2123 Y16.3088
G01 X51.2318 Y16.3127
G01 X51.3280 Y16.3267
G01 X51.4300 Y16.3319
G01 X52.7100 Y16.3319
G01 X52.8120 Y16.3267
G01 X52.9082 Y16.3127
G01 X52.9277 Y16.3088
G01 X53.0220 Y16.2849
G01 X53.1136 Y16.2524
G01 X53.1320 Y16.2448
G01 X53.2108 Y16.2075
G01 X53.2284 Y16.1981
G01 X53.3117 Y16.1479
G01 X53.3977 Y16.0841
G01 X53.4699 Y16.0190
G01 X53.4840 Y16.0049
G01 X53.5491 Y15.9327
G01 X53.6072 Y15.8548
G01 X53.6183 Y15.8382
G01 X53.6680 Y15.7547
G01 X53.7098 Y15.6670
G01 X53.7157 Y15.6532
G01 X53.7499 Y15.5570
G01 X53.7760 Y15.4530
G01 X53.7917 Y15.3470
G01 X53.7969 Y15.2400
G01 X53.7917 Y15.1330
G01 X53.7760 Y15.0270
G01 X53.7499 Y14.9230
G01 X53.7138 Y14.8221
G01 X53.6680 Y14.7253
G01 X53.6129 Y14.6333
G01 X53.5491 Y14.5473
G01 X53.4771 Y14.4679
G01 X53.3977 Y14.3959
G01 X53.3117 Y14.3321
G01 X53.2197 Y14.2770
G01 X53.1229 Y14.2312
G01 X53.0220 Y14.1951
G01 X52.9180 Y14.1690
G01 X52.8120 Y14.1533
G01 X52.7150 Y14.1483
G01 X51.4300 Y14.1481
G01 X51.3280 Y14.1533
G01 X51.2318 Y14.1673
G01 X51.2123 Y14.1712
G01 X51.1180 Y14.1951
G01 X51.0264 Y14.2276
G01 X51.0080 Y14.2352
G01 X50.9247 Y14.2747
G01 X50.7950 Y14.2747
G01 X50.7103 Y14.2789
G01 X50.6955 Y14.2805
G01 X50.6166 Y14.2923
G01 X50.6020 Y14.2954
G01 X50.5590 Y14.3062
G01 X51.1999 Y13.6653
G01 X58.0201 Y13.6653
G01 X59.9947 Y15.6399
G01 X59.9947 Y45.3201
G01 X58.0201 Y47.2947
G01 X56.6226 Y47.2947
G01 X56.5572 Y47.2465
G01 X56.4633 Y47.1899
G01 X56.4457 Y47.1805
G01 X56.3510 Y47.1358
G01 X56.3372 Y47.1303
G01 X56.2338 Y47.0935
G01 X56.1275 Y47.0667
G01 X56.1129 Y47.0636
G01 X56.0094 Y47.0481
G01 X55.9895 Y47.0462
G01 X55.8800 Y47.0411
G01 X55.7705 Y47.0462
G01 X55.7506 Y47.0481
G01 X55.6422 Y47.0645
G01 X55.5309 Y47.0922
G01 X55.5167 Y47.0967
G01 X55.4228 Y47.1303
G01 X55.4044 Y47.1379
G01 X55.3054 Y47.1850
G01 X55.2028 Y47.2465
G01 X55.1067 Y47.3177
G01 X55.0253 Y47.3912
G01 X55.0112 Y47.4053
G01 X54.9442 Y47.4792
G01 X54.9316 Y47.4946
G01 X54.8665 Y47.5828
G01 X54.8050 Y47.6854
G01 X54.7538 Y47.7935
G01 X54.7167 Y47.8967
G01 X54.7109 Y47.9158
G01 X54.6867 Y48.0125
G01 X54.6828 Y48.0320
G01 X54.6669 Y48.1405
G01 X54.6613 Y48.2500
G01 X54.6611 Y48.2650
G01 X54.6669 Y48.3795
G01 X54.6845 Y48.4978
G01 X54.7135 Y48.6138
G01 X54.7503 Y48.7172
G01 X54.7579 Y48.7356
G01 X54.8005 Y48.8257
G01 X54.8099 Y48.8433
G01 X54.8665 Y48.9372
G01 X54.9377 Y49.0333
G01 X55.0181 Y49.1219
G01 X55.0992 Y49.1958
G01 X55.1146 Y49.2084
G01 X55.1946 Y49.2678
G01 X55.2112 Y49.2788
G01 X55.3054 Y49.3350
G01 X55.4135 Y49.3862
G01 X55.5262 Y49.4265
G01 X55.6325 Y49.4533
G01 X55.6520 Y49.4572
G01 X55.7605 Y49.4731
G01 X55.8800 Y49.4789
G01 X55.9995 Y49.4731
G01 X56.1080 Y49.4572
G01 X56.1227 Y49.4545
G01 X56.2338 Y49.4265
G01 X56.3372 Y49.3897
G01 X56.3556 Y49.3821
G01 X56.4457 Y49.3395
G01 X56.4633 Y49.3301
G01 X56.5572 Y49.2735
G01 X56.6226 Y49.2253
G01 X58.4200 Y49.2253
G01 X58.5146 Y49.2207
G01 X58.6034 Y49.2077
G01 X58.6180 Y49.2046
G01 X58.6906 Y49.1864
G01 X58.7097 Y49.1806
G01 X58.7894 Y49.1518
G01 X58.8751 Y49.1113
G01 X58.9479 Y49.0680
G01 X58.9645 Y49.0569
G01 X59.0324 Y49.0062
G01 X59.0954 Y48.9495
G01 X61.6461 Y46.3990
G01 X61.7062 Y46.3324
G01 X61.7626 Y46.2563
G01 X61.8113 Y46.1751
G01 X61.8518 Y46.0894
G01 X61.8838 Y46.0002
G01 X61.9068 Y45.9083
G01 X61.9207 Y45.8146
G01 X61.9253 Y45.7250
G01 X61.9253 Y15.2400
G01 X61.9211 Y15.1503
G01 X61.9195 Y15.1355
G01 X61.9085 Y15.0615
G01 X61.9046 Y15.0420
G01 X61.8838 Y14.9598
G01 X61.8518 Y14.8706
G01 X61.8113 Y14.7849
G01 X61.7680 Y14.7121
G01 X61.7569 Y14.6955
G01 X61.7123 Y14.6355
G01 X61.6997 Y14.6201
G01 X61.6426 Y14.5574
G01 X59.1026 Y12.0174
G01 X59.0324 Y11.9538
G01 X58.9563 Y11.8974
G01 X58.8751 Y11.8487
G01 X58.7894 Y11.8082
G01 X58.7002 Y11.7762
G01 X58.6083 Y11.7532
G01 X58.5146 Y11.7393
G01 X58.4250 Y11.7347
G01 X50.8000 Y11.7347
G01 X50.7054 Y11.7393
G01 X50.6215 Y11.7515
G01 X50.6020 Y11.7554
G01 X50.5198 Y11.7762
G01 X50.4306 Y11.8082
G01 X50.3538 Y11.8442
G01 X50.3363 Y11.8536
G01 X50.2637 Y11.8974
G01 X50.1876 Y11.9538
G01 X50.1174 Y12.0174
G01 X49.1301 Y13.0047
G01 X30.4800 Y13.0047
G01 X30.3854 Y13.0093
G01 X30.2917 Y13.0232
G01 X30.2094 Y13.0436
G01 X30.1903 Y13.0494
G01 X30.1106 Y13.0782
G01 X30.0249 Y13.1187
G01 X29.9521 Y13.1620
G01 X29.9355 Y13.1731
G01 X29.8676 Y13.2238
G01 X29.8010 Y13.2839
G01 X28.5274 Y14.5574
G01 X28.4703 Y14.6201
G01 X28.4577 Y14.6355
G01 X28.4074 Y14.7037
G01 X28.3587 Y14.7849
G01 X28.3182 Y14.8706
G01 X28.2894 Y14.9503
G01 X28.2836 Y14.9694
G01 X28.2632 Y15.0517
G01 X28.2505 Y15.1355
G01 X28.2489 Y15.1503
G01 X28.2447 Y15.2350
G01 X28.2447 Y15.4308
G01 X28.1959 Y15.5122
G01 X28.1865 Y15.5297
G01 X28.1425 Y15.6233
G01 X28.1074 Y15.7206
G01 X28.1016 Y15.7397
G01 X28.0768 Y15.8401
G01 X28.0601 Y15.9522
G01 X28.0546 Y16.0655
G01 X28.0546 Y16.9595
G01 X28.0601 Y17.0678
G01 X28.0751 Y17.1701
G01 X28.0778 Y17.1848
G01 X28.1043 Y17.2899
G01 X28.1389 Y17.3874
G01 X28.1465 Y17.4058
G01 X28.1910 Y17.4992
G01 X28.2440 Y17.5880
G01 X28.2550 Y17.6046
G01 X28.3168 Y17.6875
G01 X28.3930 Y17.7715
G01 X28.4770 Y17.8477
G01 X28.5599 Y17.9095
G01 X28.5765 Y17.9205
G01 X28.6653 Y17.9735
G01 X28.7587 Y18.0180
G01 X28.7771 Y18.0256
G01 X28.8746 Y18.0602
G01 X28.9713 Y18.0847
G01 X26.9087 Y18.0847
G01 X27.0054 Y18.0602
G01 X27.1029 Y18.0256
G01 X27.1213 Y18.0180
G01 X27.2147 Y17.9735
G01 X27.3035 Y17.9205
G01 X27.3201 Y17.9095
G01 X27.4030 Y17.8477
G01 X27.4798 Y17.7784
G01 X27.4939 Y17.7643
G01 X27.5567 Y17.6951
G01 X27.5693 Y17.6797
G01 X27.6307 Y17.5964
G01 X27.6841 Y17.5078
G01 X27.6935 Y17.4903
G01 X27.7375 Y17.3967
G01 X27.7726 Y17.2994
G01 X27.7784 Y17.2803
G01 X27.8032 Y17.1799
G01 X27.8187 Y17.0776
G01 X27.8206 Y17.0578
G01 X27.8252 Y16.9645
G01 X27.8254 Y16.0605
G01 X27.8199 Y15.9522
G01 X27.8049 Y15.8499
G01 X27.8011 Y15.8304
G01 X27.7757 Y15.7301
G01 X27.7411 Y15.6326
G01 X27.7335 Y15.6142
G01 X27.6890 Y15.5208
G01 X27.6353 Y15.4308
G01 X27.6353 Y13.0999
G01 X28.3399 Y12.3953
G01 X47.0000 Y12.3951
G01 X47.0846 Y12.3907
G01 X47.1783 Y12.3768
G01 X47.2702 Y12.3538
G01 X47.3501 Y12.3254
G01 X47.3685 Y12.3178
G01 X47.4362 Y12.2858
G01 X47.4537 Y12.2764
G01 X47.5263 Y12.2326
G01 X47.5985 Y12.1793
G01 X47.6099 Y12.1697
G01 X47.6726 Y12.1126
G01 X48.6599 Y11.1253
G01 X59.2901 Y11.1253
G01 X62.5347 Y14.3699
G01 X62.5347 Y49.1301
G01 X60.5601 Y51.1047
G01 X55.0099 Y51.1047
G01 X54.3053 Y50.4001
G01 X54.3053 Y47.3899
G01 X55.0099 Y46.6853
G01 X57.1600 Y46.6851
G01 X57.2347 Y46.6814
G01 X57.2545 Y46.6795
G01 X57.3383 Y46.6668
G01 X57.4206 Y46.6464
G01 X57.4397 Y46.6406
G01 X57.5194 Y46.6118
G01 X57.6051 Y46.5713
G01 X57.6779 Y46.5280
G01 X57.6945 Y46.5169
G01 X57.7624 Y46.4662
G01 X57.8290 Y46.4061
G01 X59.1095 Y45.1254
G01 X59.1662 Y45.0624
G01 X59.2169 Y44.9945
G01 X59.2280 Y44.9779
G01 X59.2713 Y44.9051
G01 X59.3118 Y44.8194
G01 X59.3406 Y44.7397
G01 X59.3464 Y44.7206
G01 X59.3646 Y44.6480
G01 X59.3685 Y44.6285
G01 X59.3807 Y44.5446
G01 X59.3853 Y44.4500
G01 X59.3853 Y41.9100
G01 X59.3807 Y41.8154
G01 X59.3685 Y41.7315
G01 X59.3657 Y41.7168
G01 X59.3438 Y41.6298
G01 X59.3154 Y41.5499
G01 X59.3078 Y41.5315
G01 X59.2713 Y41.4549
G01 X59.2280 Y41.3821
G01 X59.2169 Y41.3655
G01 X59.1693 Y41.3015
G01 X59.1597 Y41.2901
G01 X59.1026 Y41.2274
G01 X58.5152 Y40.6400
G01 X59.1061 Y40.0490
G01 X59.1662 Y39.9824
G01 X59.2169 Y39.9145
G01 X59.2280 Y39.8979
G01 X59.2713 Y39.8251
G01 X59.3078 Y39.7485
G01 X59.3154 Y39.7301
G01 X59.3438 Y39.6502
G01 X59.3646 Y39.5680
G01 X59.3685 Y39.5485
G01 X59.3807 Y39.4646
G01 X59.3853 Y39.3700
G01 X59.3853 Y31.7500
G01 X59.3814 Y31.6653
G01 X59.3801 Y31.6504
G01 X59.3668 Y31.5617
G01 X59.3464 Y31.4794
G01 X59.3406 Y31.4603
G01 X59.3118 Y31.3806
G01 X59.2758 Y31.3038
G01 X59.2664 Y31.2863
G01 X59.2226 Y31.2137
G01 X59.1693 Y31.1415
G01 X59.1597 Y31.1301
G01 X59.1026 Y31.0674
G01 X58.3054 Y30.2703
G01 X58.3054 Y30.0305
G01 X58.3006 Y29.9322
G01 X58.2987 Y29.9124
G01 X58.2849 Y29.8199
G01 X58.2822 Y29.8052
G01 X58.2557 Y29.7001
G01 X58.2175 Y29.5933
G01 X58.1690 Y29.4908
G01 X58.1160 Y29.4020
G01 X58.1079 Y29.3895
G01 X58.0432 Y29.3025
G01 X57.9739 Y29.2257
G01 X57.9598 Y29.2116
G01 X57.8906 Y29.1488
G01 X57.8752 Y29.1362
G01 X57.7919 Y29.0748
G01 X57.6947 Y29.0165
G01 X57.5922 Y28.9680
G01 X57.4902 Y28.9313
G01 X57.4758 Y28.9271
G01 X57.3754 Y28.9023
G01 X57.2633 Y28.8856
G01 X57.1500 Y28.8801
G01 X57.0467 Y28.8849
G01 X57.0269 Y28.8868
G01 X56.9344 Y28.9006
G01 X56.9149 Y28.9044
G01 X56.8146 Y28.9298
G01 X56.7171 Y28.9644
G01 X56.6987 Y28.9720
G01 X56.6053 Y29.0165
G01 X56.5081 Y29.0748
G01 X56.4170 Y29.1423
G01 X56.3402 Y29.2116
G01 X56.3261 Y29.2257
G01 X56.2568 Y29.3025
G01 X56.1950 Y29.3854
G01 X56.1840 Y29.4020
G01 X56.1359 Y29.4822
G01 X56.1265 Y29.4997
G01 X56.0825 Y29.5933
G01 X56.0443 Y29.7001
G01 X56.0168 Y29.8101
G01 X56.0013 Y29.9124
G01 X55.9997 Y29.9272
G01 X55.9946 Y30.0355
G01 X55.9946 Y30.9245
G01 X55.9994 Y31.0278
G01 X56.0007 Y31.0427
G01 X56.0151 Y31.1401
G01 X56.0189 Y31.1596
G01 X56.0443 Y31.2599
G01 X56.0789 Y31.3574
G01 X56.0865 Y31.3758
G01 X56.1310 Y31.4692
G01 X56.1893 Y31.5664
G01 X56.2568 Y31.6575
G01 X56.3261 Y31.7343
G01 X56.3402 Y31.7484
G01 X56.4170 Y31.8177
G01 X56.4999 Y31.8795
G01 X56.5165 Y31.8905
G01 X56.6053 Y31.9435
G01 X56.6987 Y31.9880
G01 X56.7171 Y31.9956
G01 X56.8051 Y32.0271
G01 X56.8242 Y32.0329
G01 X56.9246 Y32.0577
G01 X57.0367 Y32.0744
G01 X57.1400 Y32.0797
G01 X57.1600 Y32.0797
G01 X57.2633 Y32.0744
G01 X57.3644 Y32.0596
G01 X57.4547 Y32.1499
G01 X57.4547 Y38.9701
G01 X56.7501 Y39.6747
G01 X34.5287 Y39.6747
G01 X34.6254 Y39.6502
G01 X34.7229 Y39.6156
G01 X34.7413 Y39.6080
G01 X34.8258 Y39.5680
G01 X34.8433 Y39.5586
G01 X34.9319 Y39.5052
G01 X35.0191 Y39.4408
G01 X35.0306 Y39.4312
G01 X35.1070 Y39.3615
G01 X35.1832 Y39.2775
G01 X35.2450 Y39.1946
G01 X35.2534 Y39.1823
G01 X35.3066 Y39.0935
G01 X35.3113 Y39.0848
G01 X35.3206 Y39.0653
G01 X53.3400 Y39.0653
G01 X53.4346 Y39.0607
G01 X53.5185 Y39.0485
G01 X53.5380 Y39.0446
G01 X53.6202 Y39.0238
G01 X53.7001 Y38.9954
G01 X53.7185 Y38.9878
G01 X53.7862 Y38.9558
G01 X53.8037 Y38.9464
G01 X53.8763 Y38.9026
G01 X53.9445 Y38.8523
G01 X53.9562 Y38.8430
G01 X54.0226 Y38.7826
G01 X56.0375 Y36.7677
G01 X56.1178 Y36.7555
G01 X56.2242 Y36.7291
G01 X56.2433 Y36.7233
G01 X56.3418 Y36.6880
G01 X56.3556 Y36.6821
G01 X56.4546 Y36.6350
G01 X56.5488 Y36.5788
G01 X56.5613 Y36.5707
G01 X56.6454 Y36.5084
G01 X56.6608 Y36.4958
G01 X56.7419 Y36.4219
G01 X56.8158 Y36.3408
G01 X56.8284 Y36.3254
G01 X56.8935 Y36.2372
G01 X56.9550 Y36.1346
G01 X57.0062 Y36.0265
G01 X57.0433 Y35.9233
G01 X57.0491 Y35.9042
G01 X57.0755 Y35.7978
G01 X57.0919 Y35.6894
G01 X57.0938 Y35.6695
G01 X57.0989 Y35.5600
G01 X57.0931 Y35.4405
G01 X57.0772 Y35.3320
G01 X57.0733 Y35.3125
G01 X57.0465 Y35.2062
G01 X57.0097 Y35.1028
G01 X57.0021 Y35.0844
G01 X56.9550 Y34.9854
G01 X56.8935 Y34.8828
G01 X56.8284 Y34.7946
G01 X56.8158 Y34.7792
G01 X56.7419 Y34.6981
G01 X56.6608 Y34.6242
G01 X56.6454 Y34.6116
G01 X56.5572 Y34.5465
G01 X56.4633 Y34.4899
G01 X56.4457 Y34.4805
G01 X56.3465 Y34.4338
G01 X56.2433 Y34.3967
G01 X56.2242 Y34.3909
G01 X56.1178 Y34.3645
G01 X55.9995 Y34.3469
G01 X55.8800 Y34.3411
G01 X55.7605 Y34.3469
G01 X55.6422 Y34.3645
G01 X55.5358 Y34.3909
G01 X55.5167 Y34.3967
G01 X55.4228 Y34.4303
G01 X55.4044 Y34.4379
G01 X55.3054 Y34.4850
G01 X55.2112 Y34.5412
G01 X55.1946 Y34.5522
G01 X55.1067 Y34.6177
G01 X55.0253 Y34.6912
G01 X55.0112 Y34.7053
G01 X54.9442 Y34.7792
G01 X54.9316 Y34.7946
G01 X54.8665 Y34.8828
G01 X54.8099 Y34.9767
G01 X54.8027 Y34.9898
G01 X54.7538 Y35.0935
G01 X54.7135 Y35.2062
G01 X54.6845 Y35.3222
G01 X54.6723 Y35.4025
G01 X52.9401 Y37.1347
G01 X35.3206 Y37.1347
G01 X35.3113 Y37.1152
G01 X35.3066 Y37.1065
G01 X35.2560 Y37.0220
G01 X35.2479 Y37.0095
G01 X35.1832 Y36.9225
G01 X35.1070 Y36.8385
G01 X35.0230 Y36.7623
G01 X34.9401 Y36.7005
G01 X34.9235 Y36.6895
G01 X34.8433 Y36.6414
G01 X34.8258 Y36.6320
G01 X34.7322 Y36.5880
G01 X34.6254 Y36.5498
G01 X34.5154 Y36.5223
G01 X34.4131 Y36.5068
G01 X34.3933 Y36.5049
G01 X34.2900 Y36.5001
G01 X34.1867 Y36.5049
G01 X34.1669 Y36.5068
G01 X34.0744 Y36.5206
G01 X34.0549 Y36.5244
G01 X33.9546 Y36.5498
G01 X33.8478 Y36.5880
G01 X33.7453 Y36.6365
G01 X33.6565 Y36.6895
G01 X33.6399 Y36.7005
G01 X33.5648 Y36.7562
G01 X33.5494 Y36.7688
G01 X33.4730 Y36.8385
G01 X33.3968 Y36.9225
G01 X33.3293 Y37.0136
G01 X33.2710 Y37.1108
G01 X33.2225 Y37.2133
G01 X33.1874 Y37.3106
G01 X33.1816 Y37.3297
G01 X33.1589 Y37.4204
G01 X33.1551 Y37.4399
G01 X33.1401 Y37.5422
G01 X33.1346 Y37.6555
G01 X33.1346 Y38.5445
G01 X33.1397 Y38.6528
G01 X33.1413 Y38.6676
G01 X33.1551 Y38.7601
G01 X33.1589 Y38.7796
G01 X33.1843 Y38.8799
G01 X33.2189 Y38.9774
G01 X33.2245 Y38.9912
G01 X33.2665 Y39.0803
G01 X33.2759 Y39.0978
G01 X33.3293 Y39.1864
G01 X33.3907 Y39.2697
G01 X33.4033 Y39.2851
G01 X33.4730 Y39.3615
G01 X33.5570 Y39.4377
G01 X33.6481 Y39.5052
G01 X33.7367 Y39.5586
G01 X33.7542 Y39.5680
G01 X33.8387 Y39.6080
G01 X33.8571 Y39.6156
G01 X33.9546 Y39.6502
G01 X34.0513 Y39.6747
G01 X31.9887 Y39.6747
G01 X32.0854 Y39.6502
G01 X32.1829 Y39.6156
G01 X32.2013 Y39.6080
G01 X32.2947 Y39.5635
G01 X32.3835 Y39.5105
G01 X32.4001 Y39.4995
G01 X32.4830 Y39.4377
G01 X32.5670 Y39.3615
G01 X32.6367 Y39.2851
G01 X32.6493 Y39.2697
G01 X32.7107 Y39.1864
G01 X32.7690 Y39.0892
G01 X32.8175 Y38.9867
G01 X32.8526 Y38.8894
G01 X32.8584 Y38.8703
G01 X32.8811 Y38.7796
G01 X32.8842 Y38.7650
G01 X32.8999 Y38.6578
G01 X32.9054 Y38.5495
G01 X32.9054 Y37.6555
G01 X32.9006 Y37.5522
G01 X32.8987 Y37.5324
G01 X32.8832 Y37.4301
G01 X32.8584 Y37.3297
G01 X32.8526 Y37.3106
G01 X32.8175 Y37.2133
G01 X32.7735 Y37.1197
G01 X32.7641 Y37.1022
G01 X32.7153 Y37.0208
G01 X32.7153 Y35.5600
G01 X32.7107 Y35.4654
G01 X32.6968 Y35.3717
G01 X32.6764 Y35.2894
G01 X32.6706 Y35.2703
G01 X32.6418 Y35.1906
G01 X32.6013 Y35.1049
G01 X32.5580 Y35.0321
G01 X32.5469 Y35.0155
G01 X32.4962 Y34.9476
G01 X32.4361 Y34.8810
G01 X31.1626 Y33.6074
G01 X31.0999 Y33.5503
G01 X31.0845 Y33.5377
G01 X31.0163 Y33.4874
G01 X30.9351 Y33.4387
G01 X30.8494 Y33.3982
G01 X30.7650 Y33.3677
G01 X30.7506 Y33.3636
G01 X30.6780 Y33.3454
G01 X30.6585 Y33.3415
G01 X30.5746 Y33.3293
G01 X30.4800 Y33.3247
G01 X26.1426 Y33.3247
G01 X26.0772 Y33.2765
G01 X25.9833 Y33.2199
G01 X25.9657 Y33.2105
G01 X25.8756 Y33.1679
G01 X25.8572 Y33.1603
G01 X25.7538 Y33.1235
G01 X25.6475 Y33.0967
G01 X25.6280 Y33.0928
G01 X25.5195 Y33.0769
G01 X25.4000 Y33.0711
G01 X25.2805 Y33.0769
G01 X25.1720 Y33.0928
G01 X25.1525 Y33.0967
G01 X25.0462 Y33.1235
G01 X24.9335 Y33.1638
G01 X24.8254 Y33.2150
G01 X24.7312 Y33.2712
G01 X24.7146 Y33.2822
G01 X24.6267 Y33.3477
G01 X24.5453 Y33.4212
G01 X24.5312 Y33.4353
G01 X24.4642 Y33.5092
G01 X24.4516 Y33.5246
G01 X24.3865 Y33.6128
G01 X24.3250 Y33.7154
G01 X24.2738 Y33.8235
G01 X24.2335 Y33.9362
G01 X24.2045 Y34.0522
G01 X24.1869 Y34.1705
G01 X24.1811 Y34.2900
G01 X24.1862 Y34.3995
G01 X24.1875 Y34.4144
G01 X24.2045 Y34.5278
G01 X24.2335 Y34.6438
G01 X24.2738 Y34.7565
G01 X24.3205 Y34.8557
G01 X24.3299 Y34.8733
G01 X24.3812 Y34.9588
G01 X24.3922 Y34.9754
G01 X24.4577 Y35.0633
G01 X24.5381 Y35.1519
G01 X24.6267 Y35.2323
G01 X24.7146 Y35.2978
G01 X24.7312 Y35.3088
G01 X24.8167 Y35.3601
G01 X24.8343 Y35.3695
G01 X24.9335 Y35.4162
G01 X25.0462 Y35.4565
G01 X25.1622 Y35.4855
G01 X25.2706 Y35.5019
G01 X25.2905 Y35.5038
G01 X25.4000 Y35.5089
G01 X25.5195 Y35.5031
G01 X25.6378 Y35.4855
G01 X25.7491 Y35.4578
G01 X25.7633 Y35.4533
G01 X25.8665 Y35.4162
G01 X25.9702 Y35.3673
G01 X25.9833 Y35.3601
G01 X26.0730 Y35.3062
G01 X26.0854 Y35.2978
G01 X26.1426 Y35.2553
G01 X30.0801 Y35.2553
G01 X30.7847 Y35.9599
G01 X30.7847 Y37.0208
G01 X30.7310 Y37.1108
G01 X30.6865 Y37.2042
G01 X30.6789 Y37.2226
G01 X30.6443 Y37.3201
G01 X30.6189 Y37.4204
G01 X30.6151 Y37.4399
G01 X30.6001 Y37.5422
G01 X30.5948 Y37.6455
G01 X30.5948 Y38.5545
G01 X30.6001 Y38.6578
G01 X30.6151 Y38.7601
G01 X30.6189 Y38.7796
G01 X30.6416 Y38.8703
G01 X30.6458 Y38.8847
G01 X30.6789 Y38.9774
G01 X30.6865 Y38.9958
G01 X30.7310 Y39.0892
G01 X30.7840 Y39.1780
G01 X30.7950 Y39.1946
G01 X30.8568 Y39.2775
G01 X30.9261 Y39.3543
G01 X30.9402 Y39.3684
G01 X31.0170 Y39.4377
G01 X31.0999 Y39.4995
G01 X31.1165 Y39.5105
G01 X31.2053 Y39.5635
G01 X31.2987 Y39.6080
G01 X31.3171 Y39.6156
G01 X31.4146 Y39.6502
G01 X31.5113 Y39.6747
G01 X30.8799 Y39.6747
G01 X30.2502 Y39.0450
G01 X30.2735 Y38.9958
G01 X30.2793 Y38.9820
G01 X30.3126 Y38.8894
G01 X30.3171 Y38.8751
G01 X30.3432 Y38.7699
G01 X30.3587 Y38.6676
G01 X30.3606 Y38.6478
G01 X30.3654 Y38.5445
G01 X30.3654 Y37.6505
G01 X30.3599 Y37.5422
G01 X30.3449 Y37.4399
G01 X30.3411 Y37.4204
G01 X30.3157 Y37.3201
G01 X30.2811 Y37.2226
G01 X30.2735 Y37.2042
G01 X30.2335 Y37.1197
G01 X30.2241 Y37.1022
G01 X30.1707 Y37.0136
G01 X30.1032 Y36.9225
G01 X30.0339 Y36.8457
G01 X30.0198 Y36.8316
G01 X29.9430 Y36.7623
G01 X29.8601 Y36.7005
G01 X29.8435 Y36.6895
G01 X29.7547 Y36.6365
G01 X29.6522 Y36.5880
G01 X29.5454 Y36.5498
G01 X29.4354 Y36.5223
G01 X29.3233 Y36.5056
G01 X29.2100 Y36.5001
G01 X29.0967 Y36.5056
G01 X28.9846 Y36.5223
G01 X28.8746 Y36.5498
G01 X28.7771 Y36.5844
G01 X28.7587 Y36.5920
G01 X28.6653 Y36.6365
G01 X28.5681 Y36.6948
G01 X28.4770 Y36.7623
G01 X28.4002 Y36.8316
G01 X28.3861 Y36.8457
G01 X28.3168 Y36.9225
G01 X28.2550 Y37.0054
G01 X28.2440 Y37.0220
G01 X28.1959 Y37.1022
G01 X28.1887 Y37.1152
G01 X28.1794 Y37.1347
G01 X24.5299 Y37.1347
G01 X23.8253 Y36.4301
G01 X23.8253 Y30.3553
G01 X23.8648 Y30.2720
G01 X23.8724 Y30.2536
G01 X23.9049 Y30.1620
G01 X23.9288 Y30.0677
G01 X23.9327 Y30.0482
G01 X23.9467 Y29.9520
G01 X23.9519 Y29.8450
G01 X23.9517 Y28.5650
G01 X23.9474 Y28.4779
G01 X23.9455 Y28.4581
G01 X23.9310 Y28.3620
G01 X23.9076 Y28.2676
G01 X23.9018 Y28.2486
G01 X23.8688 Y28.1571
G01 X23.8253 Y28.0647
G01 X23.8253 Y27.0699
G01 X24.5299 Y26.3653
G01 X35.5600 Y26.3653
G01 X35.6546 Y26.3607
G01 X35.7385 Y26.3485
G01 X35.7580 Y26.3446
G01 X35.8402 Y26.3238
G01 X35.9201 Y26.2954
G01 X35.9385 Y26.2878
G01 X36.0151 Y26.2513
G01 X36.0879 Y26.2080
G01 X36.1045 Y26.1969
G01 X36.1724 Y26.1462
G01 X36.2390 Y26.0861
G01 X37.5195 Y24.8054
G01 X37.5762 Y24.7424
G01 X37.6269 Y24.6745
G01 X37.6380 Y24.6579
G01 X37.6813 Y24.5851
G01 X37.7218 Y24.4994
G01 X37.7506 Y24.4197
G01 X37.7564 Y24.4006
G01 X37.7746 Y24.3280
G01 X37.7777 Y24.3134
G01 X37.7907 Y24.2246
G01 X37.7953 Y24.1300
G01 X37.7953 Y22.6692
G01 X37.8441 Y22.5878
G01 X37.8535 Y22.5703
G01 X37.8975 Y22.4767
G01 X37.9326 Y22.3794
G01 X37.9384 Y22.3603
G01 X37.9632 Y22.2599
G01 X37.9787 Y22.1576
G01 X37.9806 Y22.1378
G01 X37.9854 Y22.0345
G01 X37.9854 Y21.1405
G01 X37.9799 Y21.0322
G01 X37.9642 Y20.9250
G01 X37.9611 Y20.9104
G01 X37.9384 Y20.8197
G01 X37.9326 Y20.8006
G01 X37.8975 Y20.7033
G01 X37.8490 Y20.6008
G01 X37.7960 Y20.5120
G01 X37.7850 Y20.4954
G01 X37.7232 Y20.4125
G01 X37.6470 Y20.3285
G01 X37.5630 Y20.2523
G01 X37.4801 Y20.1905
G01 X37.4635 Y20.1795
G01 X37.3747 Y20.1265
G01 X37.2813 Y20.0820
G01 X37.2629 Y20.0744
G01 X37.1654 Y20.0398
G01 X37.0687 Y20.0153
G01 X39.1313 Y20.0153
G01 X39.0346 Y20.0398
G01 X38.9371 Y20.0744
G01 X38.9187 Y20.0820
G01 X38.8253 Y20.1265
G01 X38.7281 Y20.1848
G01 X38.6448 Y20.2462
G01 X38.6294 Y20.2588
G01 X38.5530 Y20.3285
G01 X38.4833 Y20.4049
G01 X38.4707 Y20.4203
G01 X38.4093 Y20.5036
G01 X38.3510 Y20.6008
G01 X38.3025 Y20.7033
G01 X38.2674 Y20.8006
G01 X38.2616 Y20.8197
G01 X38.2389 Y20.9104
G01 X38.2358 Y20.9250
G01 X38.2201 Y21.0322
G01 X38.2146 Y21.1405
G01 X38.2146 Y22.0345
G01 X38.2194 Y22.1378
G01 X38.2213 Y22.1576
G01 X38.2368 Y22.2599
G01 X38.2616 Y22.3603
G01 X38.2674 Y22.3794
G01 X38.3025 Y22.4767
G01 X38.3465 Y22.5703
G01 X38.3559 Y22.5878
G01 X38.4047 Y22.6692
G01 X38.4047 Y24.1300
G01 X38.4093 Y24.2246
G01 X38.4215 Y24.3085
G01 X38.4254 Y24.3280
G01 X38.4462 Y24.4102
G01 X38.4746 Y24.4901
G01 X38.4822 Y24.5085
G01 X38.5187 Y24.5851
G01 X38.5620 Y24.6579
G01 X38.5731 Y24.6745
G01 X38.6177 Y24.7345
G01 X38.6303 Y24.7499
G01 X38.6874 Y24.8126
G01 X39.9574 Y26.0826
G01 X40.0276 Y26.1462
G01 X40.0996 Y26.1998
G01 X40.1121 Y26.2080
G01 X40.1763 Y26.2464
G01 X40.1938 Y26.2558
G01 X40.2706 Y26.2918
G01 X40.3598 Y26.3238
G01 X40.4420 Y26.3446
G01 X40.4615 Y26.3485
G01 X40.5454 Y26.3607
G01 X40.6350 Y26.3653
G01 X46.5901 Y26.3653
G01 X47.2947 Y27.0699
G01 X47.2947 Y31.3501
G01 X46.5901 Y32.0547
G01 X41.9050 Y32.0547
G01 X41.8154 Y32.0593
G01 X41.7315 Y32.0715
G01 X41.7120 Y32.0754
G01 X41.6298 Y32.0962
G01 X41.5406 Y32.1282
G01 X41.4638 Y32.1642
G01 X41.4463 Y32.1736
G01 X41.3737 Y32.2174
G01 X41.2976 Y32.2738
G01 X41.2274 Y32.3374
G01 X39.9539 Y33.6110
G01 X39.8938 Y33.6776
G01 X39.8374 Y33.7537
G01 X39.7887 Y33.8349
G01 X39.7482 Y33.9206
G01 X39.7162 Y34.0098
G01 X39.6954 Y34.0920
G01 X39.6915 Y34.1115
G01 X39.6805 Y34.1855
G01 X39.6789 Y34.2003
G01 X39.6747 Y34.2900
G01 X39.6747 Y34.8174
G01 X39.6265 Y34.8828
G01 X39.5650 Y34.9854
G01 X39.5138 Y35.0935
G01 X39.4750 Y35.2014
G01 X39.4709 Y35.2158
G01 X39.4467 Y35.3125
G01 X39.4428 Y35.3320
G01 X39.4269 Y35.4405
G01 X39.4211 Y35.5550
G01 X39.4213 Y35.5700
G01 X39.4269 Y35.6795
G01 X39.4428 Y35.7880
G01 X39.4467 Y35.8075
G01 X39.4709 Y35.9042
G01 X39.4767 Y35.9233
G01 X39.5138 Y36.0265
G01 X39.5650 Y36.1346
G01 X39.6265 Y36.2372
G01 X39.6916 Y36.3254
G01 X39.7042 Y36.3408
G01 X39.7781 Y36.4219
G01 X39.8667 Y36.5023
G01 X39.9628 Y36.5735
G01 X40.0654 Y36.6350
G01 X40.1735 Y36.6862
G01 X40.2862 Y36.7265
G01 X40.4022 Y36.7555
G01 X40.5205 Y36.7731
G01 X40.6400 Y36.7789
G01 X40.7595 Y36.7731
G01 X40.8778 Y36.7555
G01 X40.9938 Y36.7265
G01 X41.1065 Y36.6862
G01 X41.2146 Y36.6350
G01 X41.3172 Y36.5735
G01 X41.4054 Y36.5084
G01 X41.4208 Y36.4958
G01 X41.5019 Y36.4219
G01 X41.5823 Y36.3333
G01 X41.6535 Y36.2372
G01 X41.7150 Y36.1346
G01 X41.7662 Y36.0265
G01 X41.8065 Y35.9138
G01 X41.8355 Y35.7978
G01 X41.8531 Y35.6795
G01 X41.8589 Y35.5600
G01 X41.8538 Y35.4505
G01 X41.8519 Y35.4306
G01 X41.8372 Y35.3320
G01 X41.8333 Y35.3125
G01 X41.8065 Y35.2062
G01 X41.7697 Y35.1028
G01 X41.7621 Y35.0844
G01 X41.7195 Y34.9943
G01 X41.7101 Y34.9767
G01 X41.6535 Y34.8828
G01 X41.6053 Y34.8174
G01 X41.6053 Y34.6899
G01 X42.3099 Y33.9853
G01 X46.9950 Y33.9853
G01 X47.0747 Y33.9814
G01 X47.0945 Y33.9795
G01 X47.1783 Y33.9668
G01 X47.2606 Y33.9464
G01 X47.2797 Y33.9406
G01 X47.3594 Y33.9118
G01 X47.4362 Y33.8758
G01 X47.4494 Y33.8689
G01 X47.5263 Y33.8226
G01 X47.5945 Y33.7723
G01 X47.6099 Y33.7597
G01 X47.6690 Y33.7061
G01 X48.9495 Y32.4254
G01 X49.0062 Y32.3624
G01 X49.0569 Y32.2945
G01 X49.0680 Y32.2779
G01 X49.1113 Y32.2051
G01 X49.1478 Y32.1285
G01 X49.1554 Y32.1101
G01 X49.1838 Y32.0302
G01 X49.2057 Y31.9432
G01 X49.2085 Y31.9285
G01 X49.2207 Y31.8446
G01 X49.2253 Y31.7500
G01 X49.2253 Y26.6650
G01 X49.2214 Y26.5853
G01 X49.2195 Y26.5655
G01 X49.2068 Y26.4817
G01 X49.1864 Y26.3994
G01 X49.1806 Y26.3803
G01 X49.1518 Y26.3006
G01 X49.1158 Y26.2238
G01 X49.1089 Y26.2106
G01 X49.0626 Y26.1337
G01 X49.0123 Y26.0655
G01 X48.9997 Y26.0501
G01 X48.9461 Y25.9910
G01 X47.6654 Y24.7105
G01 X47.6024 Y24.6538
G01 X47.5345 Y24.6031
G01 X47.5179 Y24.5920
G01 X47.4451 Y24.5487
G01 X47.3685 Y24.5122
G01 X47.3501 Y24.5046
G01 X47.2702 Y24.4762
G01 X47.1832 Y24.4543
G01 X47.1685 Y24.4515
G01 X47.0846 Y24.4393
G01 X46.9900 Y24.4347
G01 X41.0399 Y24.4347
G01 X40.3353 Y23.7301
G01 X40.3353 Y22.6692
G01 X40.3890 Y22.5792
G01 X40.4335 Y22.4858
G01 X40.4411 Y22.4674
G01 X40.4757 Y22.3699
G01 X40.5011 Y22.2696
G01 X40.5049 Y22.2501
G01 X40.5199 Y22.1478
G01 X40.5252 Y22.0445
G01 X40.5252 Y21.1355
G01 X40.5199 Y21.0322
G01 X40.5049 Y20.9299
G01 X40.5011 Y20.9104
G01 X40.4784 Y20.8197
G01 X40.4742 Y20.8053
G01 X40.4411 Y20.7126
G01 X40.4335 Y20.6942
G01 X40.3890 Y20.6008
G01 X40.3360 Y20.5120
G01 X40.3250 Y20.4954
G01 X40.2632 Y20.4125
G01 X40.1939 Y20.3357
G01 X40.1798 Y20.3216
G01 X40.1030 Y20.2523
G01 X40.0201 Y20.1905
G01 X40.0035 Y20.1795
G01 X39.9147 Y20.1265
G01 X39.8213 Y20.0820
G01 X39.8029 Y20.0744
G01 X39.7054 Y20.0398
G01 X39.6087 Y20.0153
G01 X41.6713 Y20.0153
G01 X41.5746 Y20.0398
G01 X41.4771 Y20.0744
G01 X41.4587 Y20.0820
G01 X41.3742 Y20.1220
G01 X41.3567 Y20.1314
G01 X41.2681 Y20.1848
G01 X41.1770 Y20.2523
G01 X41.1002 Y20.3216
G01 X41.0861 Y20.3357
G01 X41.0168 Y20.4125
G01 X40.9550 Y20.4954
G01 X40.9440 Y20.5120
G01 X40.8910 Y20.6008
G01 X40.8465 Y20.6942
G01 X40.8389 Y20.7126
G01 X40.8043 Y20.8101
G01 X40.7768 Y20.9201
G01 X40.7601 Y21.0322
G01 X40.7546 Y21.1405
G01 X40.7548 Y22.0445
G01 X40.7601 Y22.1478
G01 X40.7751 Y22.2501
G01 X40.7789 Y22.2696
G01 X40.8016 Y22.3603
G01 X40.8058 Y22.3747
G01 X40.8425 Y22.4767
G01 X40.8910 Y22.5792
G01 X40.9493 Y22.6764
G01 X41.0107 Y22.7597
G01 X41.0233 Y22.7751
G01 X41.0861 Y22.8443
G01 X41.1002 Y22.8584
G01 X41.1770 Y22.9277
G01 X41.2681 Y22.9952
G01 X41.3653 Y23.0535
G01 X41.4678 Y23.1020
G01 X41.5746 Y23.1402
G01 X41.6846 Y23.1677
G01 X41.7967 Y23.1844
G01 X41.9100 Y23.1899
G01 X42.0233 Y23.1844
G01 X42.1244 Y23.1696
G01 X42.4974 Y23.5426
G01 X42.5601 Y23.5997
G01 X42.5715 Y23.6093
G01 X42.6437 Y23.6626
G01 X42.7249 Y23.7113
G01 X42.8106 Y23.7518
G01 X42.8998 Y23.7838
G01 X42.9917 Y23.8068
G01 X43.0755 Y23.8195
G01 X43.0953 Y23.8214
G01 X43.1800 Y23.8253
G01 X50.9247 Y23.8253
G01 X51.0171 Y23.8688
G01 X51.1180 Y23.9049
G01 X51.2220 Y23.9310
G01 X51.3181 Y23.9455
G01 X51.3329 Y23.9471
G01 X51.4350 Y23.9519
G01 X52.7150 Y23.9517
G01 X52.8120 Y23.9467
G01 X52.9180 Y23.9310
G01 X53.0220 Y23.9049
G01 X53.1136 Y23.8724
G01 X53.1320 Y23.8648
G01 X53.2108 Y23.8275
G01 X53.2284 Y23.8181
G01 X53.3117 Y23.7679
G01 X53.3977 Y23.7041
G01 X53.4771 Y23.6321
G01 X53.5491 Y23.5527
G01 X53.6129 Y23.4667
G01 X53.6631 Y23.3834
G01 X53.6725 Y23.3658
G01 X53.7098 Y23.2870
G01 X53.7174 Y23.2686
G01 X53.7499 Y23.1770
G01 X53.7760 Y23.0730
G01 X53.7917 Y22.9670
G01 X53.7967 Y22.8700
G01 X53.7967 Y22.8500
G01 X53.7924 Y22.7629
G01 X53.7905 Y22.7431
G01 X53.7760 Y22.6470
G01 X53.7499 Y22.5430
G01 X53.7138 Y22.4421
G01 X53.6680 Y22.3453
G01 X53.6129 Y22.2533
G01 X53.5491 Y22.1673
G01 X53.4771 Y22.0879
G01 X53.4053 Y22.0224
G01 X53.3899 Y22.0098
G01 X53.3198 Y21.9578
G01 X53.3032 Y21.9467
G01 X53.2197 Y21.8970
G01 X53.1320 Y21.8552
G01 X53.1182 Y21.8493
G01 X53.0220 Y21.8151
G01 X52.9180 Y21.7890
G01 X52.8120 Y21.7733
G01 X52.7150 Y21.7683
G01 X51.4350 Y21.7681
G01 X51.3280 Y21.7733
G01 X51.2318 Y21.7873
G01 X51.2123 Y21.7912
G01 X51.1180 Y21.8151
G01 X51.0264 Y21.8476
G01 X51.0080 Y21.8552
G01 X50.9247 Y21.8947
G01 X43.5799 Y21.8947
G01 X43.0654 Y21.3803
G01 X43.0654 Y21.1405
G01 X43.0603 Y21.0372
G01 X43.0587 Y21.0224
G01 X43.0432 Y20.9201
G01 X43.0171 Y20.8149
G01 X43.0126 Y20.8006
G01 X42.9775 Y20.7033
G01 X42.9290 Y20.6008
G01 X42.8707 Y20.5036
G01 X42.8063 Y20.4164
G01 X42.7967 Y20.4049
G01 X42.7270 Y20.3285
G01 X42.6506 Y20.2588
G01 X42.6352 Y20.2462
G01 X42.5601 Y20.1905
G01 X42.5435 Y20.1795
G01 X42.4547 Y20.1265
G01 X42.3522 Y20.0780
G01 X42.2454 Y20.0398
G01 X42.1487 Y20.0153
G01 X44.0501 Y20.0153
G01 X45.0374 Y21.0026
G01 X45.1076 Y21.0662
G01 X45.1755 Y21.1169
G01 X45.1921 Y21.1280
G01 X45.2649 Y21.1713
G01 X45.3506 Y21.2118
G01 X45.4303 Y21.2406
G01 X45.4494 Y21.2464
G01 X45.5317 Y21.2668
G01 X45.6204 Y21.2801
G01 X45.6353 Y21.2814
G01 X45.7200 Y21.2853
G01 X50.9247 Y21.2853
G01 X51.0171 Y21.3288
G01 X51.1180 Y21.3649
G01 X51.2220 Y21.3910
G01 X51.3181 Y21.4055
G01 X51.3329 Y21.4071
G01 X51.4350 Y21.4119
G01 X52.7050 Y21.4119
G01 X52.8021 Y21.4074
G01 X52.8219 Y21.4055
G01 X52.9082 Y21.3927
G01 X52.9277 Y21.3888
G01 X53.0220 Y21.3649
G01 X53.1229 Y21.3288
G01 X53.2197 Y21.2830
G01 X53.3032 Y21.2333
G01 X53.3198 Y21.2222
G01 X53.3899 Y21.1702
G01 X53.4053 Y21.1576
G01 X53.4771 Y21.0921
G01 X53.5491 Y21.0127
G01 X53.6129 Y20.9267
G01 X53.6631 Y20.8434
G01 X53.6725 Y20.8258
G01 X53.7098 Y20.7470
G01 X53.7174 Y20.7286
G01 X53.7499 Y20.6370
G01 X53.7760 Y20.5330
G01 X53.7917 Y20.4270
G01 X53.7967 Y20.3300
G01 X53.7967 Y20.3100
G01 X53.7917 Y20.2130
G01 X53.7760 Y20.1070
G01 X53.7526 Y20.0126
G01 X53.7468 Y19.9936
G01 X53.7174 Y19.9114
G01 X53.7098 Y19.8930
G01 X53.6680 Y19.8053
G01 X53.6129 Y19.7133
G01 X53.5491 Y19.6273
G01 X53.4840 Y19.5551
G01 X53.4699 Y19.5410
G01 X53.4053 Y19.4824
G01 X53.3899 Y19.4698
G01 X53.3117 Y19.4121
G01 X53.2241 Y19.3594
G01 X53.2108 Y19.3525
G01 X53.1229 Y19.3112
G01 X53.0314 Y19.2782
G01 X53.0124 Y19.2724
G01 X52.9180 Y19.2490
G01 X52.8219 Y19.2345
G01 X52.8021 Y19.2326
G01 X52.7050 Y19.2281
G01 X51.4350 Y19.2281
G01 X51.3329 Y19.2329
G01 X51.3181 Y19.2345
G01 X51.2220 Y19.2490
G01 X51.1180 Y19.2751
G01 X51.0171 Y19.3112
G01 X50.9247 Y19.3547
G01 X46.1199 Y19.3547
G01 X45.1326 Y18.3674
G01 X45.0624 Y18.3038
G01 X44.9945 Y18.2531
G01 X44.9779 Y18.2420
G01 X44.9051 Y18.1987
G01 X44.8194 Y18.1582
G01 X44.7302 Y18.1262
G01 X44.6480 Y18.1054
G01 X44.6285 Y18.1015
G01 X44.5545 Y18.0905
G01 X44.5397 Y18.0889
G01 X44.4500 Y18.0847
G01 X35.5600 Y18.0847
G01 X35.4654 Y18.0893
G01 X35.3815 Y18.1015
G01 X35.3620 Y18.1054
G01 X35.2894 Y18.1236
G01 X35.2703 Y18.1294
G01 X35.1906 Y18.1582
G01 X35.1049 Y18.1987
G01 X35.0321 Y18.2420
G01 X35.0155 Y18.2531
G01 X34.9476 Y18.3038
G01 X34.8810 Y18.3639
G01 X31.3501 Y21.8947
G01 X23.6026 Y21.8947
G01 X23.5372 Y21.8465
G01 X23.4433 Y21.7899
G01 X23.4257 Y21.7805
G01 X23.3356 Y21.7379
G01 X23.3172 Y21.7303
G01 X23.2138 Y21.6935
G01 X23.1027 Y21.6655
G01 X23.0880 Y21.6628
G01 X22.9795 Y21.6469
G01 X22.8600 Y21.6411
G01 X22.7405 Y21.6469
G01 X22.6320 Y21.6628
G01 X22.6173 Y21.6655
G01 X22.5062 Y21.6935
G01 X22.4028 Y21.7303
G01 X22.3844 Y21.7379
G01 X22.2854 Y21.7850
G01 X22.1828 Y21.8465
G01 X22.0946 Y21.9116
G01 X22.0792 Y21.9242
G01 X22.0053 Y21.9912
G01 X21.9946 Y22.0016
G01 X21.9177 Y22.0867
G01 X21.8522 Y22.1746
G01 X21.8412 Y22.1912
G01 X21.7899 Y22.2767
G01 X21.7827 Y22.2898
G01 X21.7338 Y22.3935
G01 X21.6935 Y22.5062
G01 X21.6645 Y22.6222
G01 X21.6523 Y22.7025
G01 X19.9201 Y24.4347
G01 X11.8299 Y24.4347
G01 X11.1253 Y23.7301
G01 X11.1253 Y20.0904
G01 X11.2129 Y20.0588
G01 X11.3097 Y20.0130
G01 X11.4017 Y19.9579
G01 X11.4838 Y19.8972
G01 X11.4953 Y19.8876
G01 X11.5671 Y19.8221
G01 X11.6359 Y19.7465
G01 X11.6452 Y19.7349
G01 X11.7001 Y19.6608
G01 X11.7083 Y19.6482
G01 X11.7347 Y19.6042
G00 Z3.0000
G00 X11.5994 Y19.9758
G01 F60.00
G01 Z-0.1001
G01 F200.00
G01 X11.5994 Y22.0727
G01 X11.5787 Y22.1008
G01 X11.5695 Y22.1146
G01 X11.5138 Y22.2072
G01 X11.5018 Y22.2290
G01 X11.4556 Y22.3266
G01 X11.4488 Y22.3418
G01 X11.4429 Y22.3572
G01 X11.4093 Y22.4511
G01 X11.4018 Y22.4749
G01 X11.3754 Y22.5796
G01 X11.3718 Y22.5958
G01 X11.3689 Y22.6122
G01 X11.3543 Y22.7108
G01 X11.3523 Y22.7273
G01 X11.3511 Y22.7438
G01 X11.3462 Y22.8434
G01 X11.3458 Y22.8600
G01 X11.3462 Y22.8766
G01 X11.3511 Y22.9762
G01 X11.3523 Y22.9927
G01 X11.3543 Y23.0092
G01 X11.3689 Y23.1078
G01 X11.3718 Y23.1242
G01 X11.3754 Y23.1404
G01 X11.3996 Y23.2371
G01 X11.4041 Y23.2531
G01 X11.4093 Y23.2689
G01 X11.4429 Y23.3628
G01 X11.4488 Y23.3782
G01 X11.4556 Y23.3934
G01 X11.4982 Y23.4836
G01 X11.5057 Y23.4984
G01 X11.5138 Y23.5128
G01 X11.5651 Y23.5984
G01 X11.5740 Y23.6124
G01 X11.5835 Y23.6260
G01 X11.6429 Y23.7060
G01 X11.6532 Y23.7191
G01 X11.6640 Y23.7317
G01 X11.7310 Y23.8056
G01 X11.7424 Y23.8176
G01 X11.7544 Y23.8290
G01 X11.8283 Y23.8960
G01 X11.8409 Y23.9068
G01 X11.8540 Y23.9171
G01 X11.9340 Y23.9765
G01 X11.9546 Y23.9905
G01 X12.0472 Y24.0462
G01 X12.0616 Y24.0543
G01 X12.0764 Y24.0618
G01 X12.1666 Y24.1044
G01 X12.1818 Y24.1112
G01 X12.1972 Y24.1171
G01 X12.2911 Y24.1507
G01 X12.3069 Y24.1559
G01 X12.3229 Y24.1604
G01 X12.4196 Y24.1846
G01 X12.4358 Y24.1882
G01 X12.4522 Y24.1911
G01 X12.5508 Y24.2057
G01 X12.5673 Y24.2077
G01 X12.5838 Y24.2089
G01 X12.6834 Y24.2138
G01 X12.7000 Y24.2142
G01 X12.7166 Y24.2138
G01 X12.8162 Y24.2089
G01 X12.8327 Y24.2077
G01 X12.8492 Y24.2057
G01 X12.9478 Y24.1911
G01 X12.9642 Y24.1882
G01 X12.9804 Y24.1846
G01 X13.0771 Y24.1604
G01 X13.1010 Y24.1534
G01 X13.2028 Y24.1171
G01 X13.2182 Y24.1112
G01 X13.2334 Y24.1044
G01 X13.3310 Y24.0582
G01 X13.3528 Y24.0462
G01 X13.4454 Y23.9905
G01 X13.4592 Y23.9813
G01 X13.4873 Y23.9606
G01 X17.7800 Y23.9606
G01 X17.7966 Y23.9602
G01 X17.8796 Y23.9560
G01 X17.9044 Y23.9533
G01 X17.9784 Y23.9423
G01 X17.9947 Y23.9395
G01 X18.0109 Y23.9358
G01 X18.0835 Y23.9177
G01 X18.0995 Y23.9132
G01 X18.1153 Y23.9080
G01 X18.1935 Y23.8799
G01 X18.2164 Y23.8701
G01 X18.2840 Y23.8381
G01 X18.2988 Y23.8307
G01 X18.3133 Y23.8225
G01 X18.3775 Y23.7840
G01 X18.3915 Y23.7751
G01 X18.4051 Y23.7656
G01 X18.4651 Y23.7210
G01 X18.4782 Y23.7108
G01 X18.4908 Y23.7000
G01 X18.5462 Y23.6497
G01 X18.5583 Y23.6383
G01 X22.0459 Y20.1506
G01 X30.4800 Y20.1506
G01 X30.4966 Y20.1502
G01 X30.5713 Y20.1466
G01 X30.5879 Y20.1453
G01 X30.6044 Y20.1433
G01 X30.6784 Y20.1323
G01 X30.7028 Y20.1278
G01 X30.7915 Y20.1055
G01 X30.8153 Y20.0980
G01 X30.8857 Y20.0728
G01 X30.9012 Y20.0668
G01 X30.9164 Y20.0601
G01 X30.9840 Y20.0281
G01 X30.9988 Y20.0207
G01 X31.0133 Y20.0125
G01 X31.0775 Y19.9740
G01 X31.0915 Y19.9651
G01 X31.1051 Y19.9556
G01 X31.1651 Y19.9110
G01 X31.1846 Y19.8955
G01 X31.2462 Y19.8397
G01 X31.2583 Y19.8283
G01 X32.5283 Y18.5583
G01 X32.5397 Y18.5462
G01 X32.5955 Y18.4846
G01 X32.6110 Y18.4651
G01 X32.6556 Y18.4051
G01 X32.6651 Y18.3915
G01 X32.6740 Y18.3775
G01 X32.7125 Y18.3133
G01 X32.7207 Y18.2988
G01 X32.7281 Y18.2840
G01 X32.7601 Y18.2164
G01 X32.7668 Y18.2012
G01 X32.7728 Y18.1857
G01 X32.7980 Y18.1153
G01 X32.8032 Y18.0995
G01 X32.8077 Y18.0835
G01 X32.8258 Y18.0109
G01 X32.8295 Y17.9947
G01 X32.8323 Y17.9784
G01 X32.8444 Y17.8961
G01 X32.8466 Y17.8713
G01 X32.8505 Y17.7883
G01 X32.8506 Y17.6267
G01 X32.8602 Y17.6106
G01 X49.5383 Y17.6105
G01 X49.6213 Y17.6066
G01 X49.6379 Y17.6053
G01 X49.6544 Y17.6033
G01 X49.7284 Y17.5923
G01 X49.7447 Y17.5895
G01 X49.7609 Y17.5858
G01 X49.8335 Y17.5677
G01 X49.8495 Y17.5632
G01 X49.8653 Y17.5580
G01 X49.9357 Y17.5328
G01 X49.9512 Y17.5268
G01 X49.9664 Y17.5201
G01 X50.0340 Y17.4881
G01 X50.0488 Y17.4807
G01 X50.0633 Y17.4725
G01 X50.1275 Y17.4340
G01 X50.1415 Y17.4251
G01 X50.1551 Y17.4156
G01 X50.2151 Y17.3710
G01 X50.2282 Y17.3608
G01 X50.2408 Y17.3500
G01 X50.2962 Y17.2997
G01 X50.3138 Y17.2827
G01 X50.3044 Y17.3027
G01 X50.2952 Y17.3258
G01 X50.2631 Y17.4158
G01 X50.2562 Y17.4397
G01 X50.2350 Y17.5244
G01 X50.2298 Y17.5487
G01 X50.2157 Y17.6432
G01 X50.2137 Y17.6597
G01 X50.2124 Y17.6763
G01 X50.2082 Y17.7634
G01 X50.2078 Y17.7800
G01 X50.2082 Y17.7966
G01 X50.2124 Y17.8837
G01 X50.2146 Y17.9085
G01 X50.2285 Y18.0031
G01 X50.2313 Y18.0194
G01 X50.2350 Y18.0356
G01 X50.2562 Y18.1203
G01 X50.2606 Y18.1363
G01 X50.2658 Y18.1520
G01 X50.2952 Y18.2342
G01 X50.3012 Y18.2496
G01 X50.3079 Y18.2648
G01 X50.3452 Y18.3437
G01 X50.3527 Y18.3585
G01 X50.3608 Y18.3730
G01 X50.4057 Y18.4478
G01 X50.4146 Y18.4618
G01 X50.4241 Y18.4754
G01 X50.4761 Y18.5455
G01 X50.4863 Y18.5586
G01 X50.4972 Y18.5711
G01 X50.5558 Y18.6358
G01 X50.5672 Y18.6478
G01 X50.5792 Y18.6592
G01 X50.6439 Y18.7178
G01 X50.6564 Y18.7287
G01 X50.6695 Y18.7389
G01 X50.7396 Y18.7909
G01 X50.7532 Y18.8004
G01 X50.7672 Y18.8093
G01 X50.8420 Y18.8542
G01 X50.8638 Y18.8662
G01 X50.9502 Y18.9071
G01 X50.9654 Y18.9138
G01 X50.9808 Y18.9198
G01 X51.0630 Y18.9492
G01 X51.0787 Y18.9544
G01 X51.0947 Y18.9588
G01 X51.1794 Y18.9800
G01 X51.1956 Y18.9837
G01 X51.2119 Y18.9865
G01 X51.2982 Y18.9993
G01 X51.3147 Y19.0013
G01 X51.3313 Y19.0026
G01 X51.4184 Y19.0068
G01 X51.4350 Y19.0072
G01 X52.7050 Y19.0072
G01 X52.7216 Y19.0068
G01 X52.8087 Y19.0026
G01 X52.8335 Y19.0004
G01 X52.9281 Y18.9865
G01 X52.9444 Y18.9837
G01 X52.9606 Y18.9800
G01 X53.0533 Y18.9567
G01 X53.0770 Y18.9492
G01 X53.1592 Y18.9198
G01 X53.1746 Y18.9138
G01 X53.1898 Y18.9071
G01 X53.2458 Y18.8806
G01 X54.1541 Y18.8806
G01 X54.7794 Y19.5059
G01 X54.7794 Y23.6741
G01 X51.2859 Y27.1677
G01 X51.2300 Y27.2292
G01 X51.2192 Y27.2418
G01 X51.2090 Y27.2549
G01 X51.1644 Y27.3149
G01 X51.1549 Y27.3285
G01 X51.1460 Y27.3425
G01 X51.1075 Y27.4067
G01 X51.0993 Y27.4212
G01 X51.0919 Y27.4360
G01 X51.0599 Y27.5036
G01 X51.0532 Y27.5188
G01 X51.0472 Y27.5343
G01 X51.0220 Y27.6047
G01 X51.0168 Y27.6205
G01 X51.0123 Y27.6365
G01 X50.9922 Y27.7172
G01 X50.9877 Y27.7416
G01 X50.9767 Y27.8156
G01 X50.9747 Y27.8321
G01 X50.9734 Y27.8487
G01 X50.9698 Y27.9234
G01 X50.9694 Y27.9400
G01 X50.9694 Y29.3633
G01 X50.9398 Y29.4126
G01 X50.9317 Y29.4270
G01 X50.9242 Y29.4419
G01 X50.8808 Y29.5339
G01 X50.8715 Y29.5570
G01 X50.8400 Y29.6451
G01 X50.8325 Y29.6688
G01 X50.8077 Y29.7675
G01 X50.8041 Y29.7837
G01 X50.8012 Y29.8000
G01 X50.7875 Y29.8925
G01 X50.7855 Y29.9090
G01 X50.7842 Y29.9255
G01 X50.7794 Y30.0272
G01 X50.7793 Y30.9245
G01 X50.7797 Y30.9411
G01 X50.7848 Y31.0427
G01 X50.7875 Y31.0675
G01 X50.8012 Y31.1600
G01 X50.8041 Y31.1763
G01 X50.8077 Y31.1925
G01 X50.8304 Y31.2832
G01 X50.8348 Y31.2992
G01 X50.8400 Y31.3149
G01 X50.8715 Y31.4030
G01 X50.8808 Y31.4261
G01 X50.9242 Y31.5181
G01 X50.9317 Y31.5330
G01 X50.9398 Y31.5474
G01 X50.9879 Y31.6276
G01 X50.9968 Y31.6416
G01 X51.0063 Y31.6552
G01 X51.0671 Y31.7369
G01 X51.0831 Y31.7559
G01 X51.1459 Y31.8252
G01 X51.1573 Y31.8372
G01 X51.1693 Y31.8486
G01 X51.2386 Y31.9114
G01 X51.2512 Y31.9223
G01 X51.2642 Y31.9325
G01 X51.3393 Y31.9882
G01 X51.3529 Y31.9977
G01 X51.3669 Y32.0066
G01 X51.4471 Y32.0547
G01 X51.4615 Y32.0628
G01 X51.4764 Y32.0703
G01 X51.5609 Y32.1103
G01 X51.5761 Y32.1170
G01 X51.5915 Y32.1230
G01 X51.6796 Y32.1545
G01 X51.6953 Y32.1597
G01 X51.7113 Y32.1641
G01 X51.8020 Y32.1868
G01 X51.8182 Y32.1904
G01 X51.8345 Y32.1933
G01 X51.9270 Y32.2070
G01 X51.9518 Y32.2097
G01 X52.0534 Y32.2148
G01 X52.0700 Y32.2152
G01 X52.0866 Y32.2148
G01 X52.1800 Y32.2103
G01 X52.1965 Y32.2090
G01 X52.2130 Y32.2070
G01 X52.3055 Y32.1933
G01 X52.3218 Y32.1904
G01 X52.3380 Y32.1868
G01 X52.4287 Y32.1641
G01 X52.4447 Y32.1597
G01 X52.4604 Y32.1545
G01 X52.5485 Y32.1230
G01 X52.5716 Y32.1137
G01 X52.6636 Y32.0703
G01 X52.6785 Y32.0628
G01 X52.6929 Y32.0547
G01 X52.7731 Y32.0066
G01 X52.7871 Y31.9977
G01 X52.8007 Y31.9882
G01 X52.8574 Y31.9461
G01 X50.3441 Y34.4594
G01 X45.2373 Y34.4594
G01 X45.2092 Y34.4387
G01 X45.1954 Y34.4295
G01 X45.0957 Y34.3697
G01 X45.0736 Y34.3582
G01 X44.9759 Y34.3121
G01 X44.9528 Y34.3029
G01 X44.8589 Y34.2693
G01 X44.8431 Y34.2641
G01 X44.8271 Y34.2596
G01 X44.7223 Y34.2335
G01 X44.6978 Y34.2289
G01 X44.5992 Y34.2143
G01 X44.5827 Y34.2123
G01 X44.5662 Y34.2111
G01 X44.4666 Y34.2062
G01 X44.4500 Y34.2058
G01 X44.4334 Y34.2062
G01 X44.3338 Y34.2111
G01 X44.3173 Y34.2123
G01 X44.3008 Y34.2143
G01 X44.2022 Y34.2289
G01 X44.1858 Y34.2318
G01 X44.1696 Y34.2354
G01 X44.0729 Y34.2596
G01 X44.0569 Y34.2641
G01 X44.0411 Y34.2693
G01 X43.9472 Y34.3029
G01 X43.9318 Y34.3088
G01 X43.9166 Y34.3156
G01 X43.8264 Y34.3582
G01 X43.8116 Y34.3657
G01 X43.7972 Y34.3738
G01 X43.7116 Y34.4251
G01 X43.6976 Y34.4340
G01 X43.6840 Y34.4435
G01 X43.6040 Y34.5029
G01 X43.5909 Y34.5132
G01 X43.5783 Y34.5240
G01 X43.5044 Y34.5910
G01 X43.4924 Y34.6024
G01 X43.4810 Y34.6144
G01 X43.4140 Y34.6883
G01 X43.4032 Y34.7009
G01 X43.3929 Y34.7140
G01 X43.3335 Y34.7940
G01 X43.3240 Y34.8076
G01 X43.3151 Y34.8216
G01 X43.2638 Y34.9072
G01 X43.2557 Y34.9216
G01 X43.2482 Y34.9364
G01 X43.2056 Y35.0266
G01 X43.1988 Y35.0418
G01 X43.1929 Y35.0572
G01 X43.1593 Y35.1511
G01 X43.1541 Y35.1669
G01 X43.1496 Y35.1829
G01 X43.1254 Y35.2796
G01 X43.1218 Y35.2958
G01 X43.1189 Y35.3122
G01 X43.1043 Y35.4108
G01 X43.1023 Y35.4273
G01 X43.1011 Y35.4438
G01 X43.0962 Y35.5434
G01 X43.0958 Y35.5600
G01 X43.0962 Y35.5766
G01 X43.1011 Y35.6762
G01 X43.1023 Y35.6927
G01 X43.1043 Y35.7092
G01 X43.1189 Y35.8078
G01 X43.1218 Y35.8242
G01 X43.1254 Y35.8404
G01 X43.1496 Y35.9371
G01 X43.1566 Y35.9610
G01 X43.1929 Y36.0628
G01 X43.1988 Y36.0782
G01 X43.2056 Y36.0934
G01 X43.2482 Y36.1836
G01 X43.2557 Y36.1984
G01 X43.2638 Y36.2128
G01 X43.3151 Y36.2984
G01 X43.3240 Y36.3124
G01 X43.3335 Y36.3260
G01 X43.3929 Y36.4060
G01 X43.4032 Y36.4191
G01 X43.4140 Y36.4317
G01 X43.4810 Y36.5056
G01 X43.4924 Y36.5176
G01 X43.5044 Y36.5290
G01 X43.5783 Y36.5960
G01 X43.5909 Y36.6068
G01 X43.6040 Y36.6171
G01 X43.6840 Y36.6765
G01 X43.6976 Y36.6860
G01 X43.7116 Y36.6949
G01 X43.7972 Y36.7462
G01 X43.8116 Y36.7543
G01 X43.8264 Y36.7618
G01 X43.9166 Y36.8044
G01 X43.9318 Y36.8112
G01 X43.9472 Y36.8171
G01 X44.0411 Y36.8507
G01 X44.0569 Y36.8559
G01 X44.0729 Y36.8604
G01 X44.1696 Y36.8846
G01 X44.1858 Y36.8882
G01 X44.2022 Y36.8911
G01 X44.3008 Y36.9057
G01 X44.3255 Y36.9084
G01 X44.4334 Y36.9138
G01 X44.4500 Y36.9142
G01 X44.4666 Y36.9138
G01 X44.5662 Y36.9089
G01 X44.5827 Y36.9077
G01 X44.5992 Y36.9057
G01 X44.6978 Y36.8911
G01 X44.7142 Y36.8882
G01 X44.7304 Y36.8846
G01 X44.8351 Y36.8582
G01 X44.8589 Y36.8507
G01 X44.9528 Y36.8171
G01 X44.9682 Y36.8112
G01 X44.9834 Y36.8044
G01 X45.0810 Y36.7582
G01 X45.1028 Y36.7462
G01 X45.1954 Y36.6905
G01 X45.2092 Y36.6813
G01 X45.2373 Y36.6606
G01 X50.8083 Y36.6605
G01 X50.8913 Y36.6566
G01 X50.9079 Y36.6553
G01 X50.9244 Y36.6533
G01 X50.9984 Y36.6423
G01 X51.0147 Y36.6395
G01 X51.0309 Y36.6358
G01 X51.1035 Y36.6177
G01 X51.1195 Y36.6132
G01 X51.1353 Y36.6080
G01 X51.2135 Y36.5799
G01 X51.2364 Y36.5701
G01 X51.3040 Y36.5381
G01 X51.3188 Y36.5307
G01 X51.3333 Y36.5225
G01 X51.3975 Y36.4840
G01 X51.4115 Y36.4751
G01 X51.4251 Y36.4656
G01 X51.4851 Y36.4210
G01 X51.4982 Y36.4108
G01 X51.5108 Y36.4000
G01 X51.5723 Y36.3441
G01 X55.3883 Y32.5283
G01 X55.3997 Y32.5162
G01 X55.4555 Y32.4546
G01 X55.4710 Y32.4351
G01 X55.5156 Y32.3751
G01 X55.5251 Y32.3615
G01 X55.5340 Y32.3475
G01 X55.5725 Y32.2833
G01 X55.5807 Y32.2688
G01 X55.5881 Y32.2540
G01 X55.6201 Y32.1864
G01 X55.6268 Y32.1712
G01 X55.6328 Y32.1557
G01 X55.6607 Y32.0774
G01 X55.6677 Y32.0535
G01 X55.6858 Y31.9809
G01 X55.6895 Y31.9647
G01 X55.6923 Y31.9484
G01 X55.7033 Y31.8744
G01 X55.7053 Y31.8579
G01 X55.7066 Y31.8413
G01 X55.7105 Y31.7583
G01 X55.7106 Y31.5967
G01 X55.7402 Y31.5474
G01 X55.7522 Y31.5256
G01 X55.7958 Y31.4336
G01 X55.8056 Y31.4107
G01 X55.8400 Y31.3149
G01 X55.8475 Y31.2912
G01 X55.8742 Y31.1844
G01 X55.8775 Y31.1682
G01 X55.8800 Y31.1518
G01 X55.8825 Y31.1682
G01 X55.8858 Y31.1844
G01 X55.9125 Y31.2912
G01 X55.9200 Y31.3149
G01 X55.9544 Y31.4107
G01 X55.9642 Y31.4336
G01 X56.0042 Y31.5181
G01 X56.0117 Y31.5330
G01 X56.0198 Y31.5474
G01 X56.0723 Y31.6346
G01 X56.0863 Y31.6552
G01 X56.1420 Y31.7303
G01 X56.1522 Y31.7433
G01 X56.1631 Y31.7559
G01 X56.2259 Y31.8252
G01 X56.2373 Y31.8372
G01 X56.2493 Y31.8486
G01 X56.3186 Y31.9114
G01 X56.3312 Y31.9223
G01 X56.3442 Y31.9325
G01 X56.4193 Y31.9882
G01 X56.4329 Y31.9977
G01 X56.4469 Y32.0066
G01 X56.5271 Y32.0547
G01 X56.5415 Y32.0628
G01 X56.5564 Y32.0703
G01 X56.6484 Y32.1137
G01 X56.6715 Y32.1230
G01 X56.7596 Y32.1545
G01 X56.7753 Y32.1597
G01 X56.7913 Y32.1641
G01 X56.8820 Y32.1868
G01 X56.8982 Y32.1904
G01 X56.9145 Y32.1933
G01 X57.0152 Y32.2081
G01 X57.0400 Y32.2103
G01 X57.1334 Y32.2148
G01 X57.1500 Y32.2152
G01 X57.1666 Y32.2148
G01 X57.2682 Y32.2097
G01 X57.2848 Y32.2081
G01 X57.3169 Y32.2034
G01 X57.3194 Y32.2059
G01 X57.3194 Y38.9141
G01 X56.6941 Y39.5394
G01 X35.1123 Y39.5394
G01 X35.1907 Y39.4686
G01 X35.2027 Y39.4572
G01 X35.2141 Y39.4452
G01 X35.2824 Y39.3697
G01 X35.2980 Y39.3503
G01 X35.3585 Y39.2684
G01 X35.3721 Y39.2476
G01 X35.4002 Y39.2006
G01 X53.3400 Y39.2006
G01 X53.3566 Y39.2002
G01 X53.4313 Y39.1966
G01 X53.4479 Y39.1953
G01 X53.4644 Y39.1933
G01 X53.5384 Y39.1823
G01 X53.5547 Y39.1795
G01 X53.5709 Y39.1758
G01 X53.6435 Y39.1577
G01 X53.6595 Y39.1532
G01 X53.6753 Y39.1480
G01 X53.7457 Y39.1228
G01 X53.7612 Y39.1168
G01 X53.7764 Y39.1101
G01 X53.8440 Y39.0781
G01 X53.8661 Y39.0667
G01 X53.9445 Y39.0197
G01 X53.9651 Y39.0056
G01 X54.0251 Y38.9610
G01 X54.0382 Y38.9508
G01 X54.0508 Y38.9400
G01 X54.1062 Y38.8897
G01 X54.1183 Y38.8783
G01 X56.1016 Y36.8950
G01 X56.1360 Y36.8897
G01 X56.1523 Y36.8865
G01 X56.2651 Y36.8582
G01 X56.2889 Y36.8507
G01 X56.3828 Y36.8171
G01 X56.3982 Y36.8112
G01 X56.4134 Y36.8044
G01 X56.5036 Y36.7618
G01 X56.5184 Y36.7543
G01 X56.5328 Y36.7462
G01 X56.6184 Y36.6949
G01 X56.6324 Y36.6860
G01 X56.6460 Y36.6765
G01 X56.7260 Y36.6171
G01 X56.7391 Y36.6068
G01 X56.7517 Y36.5960
G01 X56.8256 Y36.5290
G01 X56.8376 Y36.5176
G01 X56.8490 Y36.5056
G01 X56.9160 Y36.4317
G01 X56.9268 Y36.4191
G01 X56.9371 Y36.4060
G01 X56.9965 Y36.3260
G01 X57.0060 Y36.3124
G01 X57.0149 Y36.2984
G01 X57.0662 Y36.2128
G01 X57.0743 Y36.1984
G01 X57.0818 Y36.1836
G01 X57.1244 Y36.0934
G01 X57.1312 Y36.0782
G01 X57.1371 Y36.0628
G01 X57.1707 Y35.9689
G01 X57.1759 Y35.9531
G01 X57.1804 Y35.9371
G01 X57.2046 Y35.8404
G01 X57.2082 Y35.8242
G01 X57.2111 Y35.8078
G01 X57.2257 Y35.7092
G01 X57.2277 Y35.6927
G01 X57.2289 Y35.6762
G01 X57.2338 Y35.5766
G01 X57.2342 Y35.5600
G01 X57.2338 Y35.5434
G01 X57.2289 Y35.4438
G01 X57.2277 Y35.4273
G01 X57.2257 Y35.4108
G01 X57.2111 Y35.3122
G01 X57.2082 Y35.2958
G01 X57.2046 Y35.2796
G01 X57.1804 Y35.1829
G01 X57.1759 Y35.1669
G01 X57.1707 Y35.1511
G01 X57.1371 Y35.0572
G01 X57.1312 Y35.0418
G01 X57.1244 Y35.0266
G01 X57.0818 Y34.9364
G01 X57.0743 Y34.9216
G01 X57.0662 Y34.9072
G01 X57.0149 Y34.8216
G01 X57.0060 Y34.8076
G01 X56.9965 Y34.7940
G01 X56.9371 Y34.7140
G01 X56.9268 Y34.7009
G01 X56.9160 Y34.6883
G01 X56.8490 Y34.6144
G01 X56.8376 Y34.6024
G01 X56.8256 Y34.5910
G01 X56.7517 Y34.5240
G01 X56.7391 Y34.5132
G01 X56.7260 Y34.5029
G01 X56.6460 Y34.4435
G01 X56.6324 Y34.4340
G01 X56.6184 Y34.4251
G01 X56.5328 Y34.3738
G01 X56.5184 Y34.3657
G01 X56.5036 Y34.3582
G01 X56.4134 Y34.3156
G01 X56.3982 Y34.3088
G01 X56.3828 Y34.3029
G01 X56.2889 Y34.2693
G01 X56.2731 Y34.2641
G01 X56.2571 Y34.2596
G01 X56.1604 Y34.2354
G01 X56.1442 Y34.2318
G01 X56.1278 Y34.2289
G01 X56.0292 Y34.2143
G01 X56.0045 Y34.2116
G01 X55.8966 Y34.2062
G01 X55.8800 Y34.2058
G01 X55.8634 Y34.2062
G01 X55.7638 Y34.2111
G01 X55.7473 Y34.2123
G01 X55.7308 Y34.2143
G01 X55.6322 Y34.2289
G01 X55.6158 Y34.2318
G01 X55.5996 Y34.2354
G01 X55.5029 Y34.2596
G01 X55.4869 Y34.2641
G01 X55.4711 Y34.2693
G01 X55.3772 Y34.3029
G01 X55.3618 Y34.3088
G01 X55.3466 Y34.3156
G01 X55.2564 Y34.3582
G01 X55.2416 Y34.3657
G01 X55.2272 Y34.3738
G01 X55.1416 Y34.4251
G01 X55.1276 Y34.4340
G01 X55.1140 Y34.4435
G01 X55.0340 Y34.5029
G01 X55.0209 Y34.5132
G01 X55.0083 Y34.5240
G01 X54.9344 Y34.5910
G01 X54.9224 Y34.6024
G01 X54.9110 Y34.6144
G01 X54.8440 Y34.6883
G01 X54.8332 Y34.7009
G01 X54.8229 Y34.7140
G01 X54.7635 Y34.7940
G01 X54.7540 Y34.8076
G01 X54.7451 Y34.8216
G01 X54.6897 Y34.9143
G01 X54.6782 Y34.9364
G01 X54.6356 Y35.0266
G01 X54.6288 Y35.0418
G01 X54.6229 Y35.0572
G01 X54.5866 Y35.1590
G01 X54.5796 Y35.1829
G01 X54.5535 Y35.2877
G01 X54.5503 Y35.3040
G01 X54.5450 Y35.3384
G01 X52.8841 Y36.9994
G01 X35.4002 Y36.9994
G01 X35.3721 Y36.9524
G01 X35.3585 Y36.9316
G01 X35.2929 Y36.8431
G01 X35.2769 Y36.8241
G01 X35.2141 Y36.7548
G01 X35.1968 Y36.7370
G01 X35.1214 Y36.6686
G01 X35.1088 Y36.6577
G01 X35.0958 Y36.6475
G01 X35.0207 Y36.5918
G01 X35.0071 Y36.5823
G01 X34.9931 Y36.5734
G01 X34.9057 Y36.5212
G01 X34.8836 Y36.5097
G01 X34.7991 Y36.4697
G01 X34.7839 Y36.4630
G01 X34.7685 Y36.4570
G01 X34.6804 Y36.4255
G01 X34.6647 Y36.4203
G01 X34.6487 Y36.4159
G01 X34.5580 Y36.3932
G01 X34.5418 Y36.3896
G01 X34.5255 Y36.3867
G01 X34.4330 Y36.3730
G01 X34.4165 Y36.3710
G01 X34.4000 Y36.3697
G01 X34.3066 Y36.3652
G01 X34.2817 Y36.3649
G01 X34.1800 Y36.3697
G01 X34.1635 Y36.3710
G01 X34.1470 Y36.3730
G01 X34.0545 Y36.3867
G01 X34.0382 Y36.3896
G01 X34.0220 Y36.3932
G01 X33.9313 Y36.4159
G01 X33.9153 Y36.4203
G01 X33.8996 Y36.4255
G01 X33.8115 Y36.4570
G01 X33.7961 Y36.4630
G01 X33.7809 Y36.4697
G01 X33.6889 Y36.5133
G01 X33.6671 Y36.5253
G01 X33.5869 Y36.5734
G01 X33.5729 Y36.5823
G01 X33.5593 Y36.5918
G01 X33.4842 Y36.6475
G01 X33.4648 Y36.6631
G01 X33.3893 Y36.7314
G01 X33.3773 Y36.7428
G01 X33.3659 Y36.7548
G01 X33.3031 Y36.8241
G01 X33.2922 Y36.8367
G01 X33.2820 Y36.8497
G01 X33.2263 Y36.9248
G01 X33.2168 Y36.9384
G01 X33.2079 Y36.9524
G01 X33.1557 Y37.0398
G01 X33.1442 Y37.0619
G01 X33.1042 Y37.1464
G01 X33.0975 Y37.1616
G01 X33.0915 Y37.1770
G01 X33.0600 Y37.2651
G01 X33.0525 Y37.2888
G01 X33.0277 Y37.3875
G01 X33.0241 Y37.4037
G01 X33.0200 Y37.4282
G01 X33.0175 Y37.4118
G01 X33.0142 Y37.3956
G01 X32.9875 Y37.2888
G01 X32.9800 Y37.2651
G01 X32.9456 Y37.1693
G01 X32.9358 Y37.1464
G01 X32.8922 Y37.0544
G01 X32.8802 Y37.0326
G01 X32.8506 Y36.9833
G01 X32.8506 Y35.5600
G01 X32.8502 Y35.5434
G01 X32.8460 Y35.4604
G01 X32.8433 Y35.4356
G01 X32.8323 Y35.3616
G01 X32.8295 Y35.3453
G01 X32.8258 Y35.3291
G01 X32.8077 Y35.2565
G01 X32.8032 Y35.2405
G01 X32.7980 Y35.2247
G01 X32.7728 Y35.1543
G01 X32.7668 Y35.1388
G01 X32.7601 Y35.1236
G01 X32.7245 Y35.0485
G01 X32.7125 Y35.0267
G01 X32.6740 Y34.9625
G01 X32.6651 Y34.9485
G01 X32.6556 Y34.9349
G01 X32.6110 Y34.8749
G01 X32.6008 Y34.8618
G01 X32.5900 Y34.8492
G01 X32.5397 Y34.7938
G01 X32.5283 Y34.7817
G01 X31.2523 Y33.5059
G01 X31.1846 Y33.4445
G01 X31.1651 Y33.4290
G01 X31.1051 Y33.3844
G01 X31.0915 Y33.3749
G01 X31.0775 Y33.3660
G01 X31.0061 Y33.3233
G01 X30.9840 Y33.3119
G01 X30.9164 Y33.2799
G01 X30.9012 Y33.2732
G01 X30.8857 Y33.2672
G01 X30.8153 Y33.2420
G01 X30.7995 Y33.2368
G01 X30.7835 Y33.2323
G01 X30.7109 Y33.2142
G01 X30.6947 Y33.2105
G01 X30.6784 Y33.2077
G01 X30.6044 Y33.1967
G01 X30.5796 Y33.1940
G01 X30.4883 Y33.1895
G01 X26.1873 Y33.1894
G01 X26.1592 Y33.1687
G01 X26.1454 Y33.1595
G01 X26.0528 Y33.1038
G01 X26.0310 Y33.0918
G01 X25.9334 Y33.0456
G01 X25.9182 Y33.0388
G01 X25.9028 Y33.0329
G01 X25.8089 Y32.9993
G01 X25.7851 Y32.9918
G01 X25.6804 Y32.9654
G01 X25.6642 Y32.9618
G01 X25.6478 Y32.9589
G01 X25.5492 Y32.9443
G01 X25.5327 Y32.9423
G01 X25.5162 Y32.9411
G01 X25.4166 Y32.9362
G01 X25.4000 Y32.9358
G01 X25.3834 Y32.9362
G01 X25.2755 Y32.9416
G01 X25.2508 Y32.9443
G01 X25.1522 Y32.9589
G01 X25.1358 Y32.9618
G01 X25.1196 Y32.9654
G01 X25.0229 Y32.9896
G01 X25.0069 Y32.9941
G01 X24.9911 Y32.9993
G01 X24.8972 Y33.0329
G01 X24.8818 Y33.0388
G01 X24.8666 Y33.0456
G01 X24.7764 Y33.0882
G01 X24.7616 Y33.0957
G01 X24.7472 Y33.1038
G01 X24.6616 Y33.1551
G01 X24.6476 Y33.1640
G01 X24.6340 Y33.1735
G01 X24.5540 Y33.2329
G01 X24.5409 Y33.2432
G01 X24.5283 Y33.2540
G01 X24.4544 Y33.3210
G01 X24.4424 Y33.3324
G01 X24.4310 Y33.3444
G01 X24.3640 Y33.4183
G01 X24.3532 Y33.4309
G01 X24.3429 Y33.4440
G01 X24.2835 Y33.5240
G01 X24.2740 Y33.5376
G01 X24.2651 Y33.5516
G01 X24.2138 Y33.6372
G01 X24.2057 Y33.6516
G01 X24.1982 Y33.6664
G01 X24.1556 Y33.7566
G01 X24.1488 Y33.7718
G01 X24.1429 Y33.7872
G01 X24.1093 Y33.8811
G01 X24.1041 Y33.8969
G01 X24.0996 Y33.9129
G01 X24.0754 Y34.0096
G01 X24.0718 Y34.0258
G01 X24.0689 Y34.0422
G01 X24.0543 Y34.1408
G01 X24.0523 Y34.1573
G01 X24.0511 Y34.1738
G01 X24.0462 Y34.2734
G01 X24.0458 Y34.2900
G01 X24.0462 Y34.3066
G01 X24.0511 Y34.4062
G01 X24.0523 Y34.4227
G01 X24.0543 Y34.4392
G01 X24.0689 Y34.5378
G01 X24.0718 Y34.5542
G01 X24.0754 Y34.5704
G01 X24.0996 Y34.6671
G01 X24.1041 Y34.6831
G01 X24.1093 Y34.6989
G01 X24.1429 Y34.7928
G01 X24.1488 Y34.8082
G01 X24.1556 Y34.8234
G01 X24.1982 Y34.9136
G01 X24.2057 Y34.9284
G01 X24.2138 Y34.9428
G01 X24.2651 Y35.0284
G01 X24.2740 Y35.0424
G01 X24.2835 Y35.0560
G01 X24.3429 Y35.1360
G01 X24.3532 Y35.1491
G01 X24.3640 Y35.1617
G01 X24.4310 Y35.2356
G01 X24.4424 Y35.2476
G01 X24.4544 Y35.2590
G01 X24.5345 Y35.3315
G01 X24.5540 Y35.3471
G01 X24.6340 Y35.4065
G01 X24.6476 Y35.4160
G01 X24.6616 Y35.4249
G01 X24.7472 Y35.4762
G01 X24.7616 Y35.4843
G01 X24.7764 Y35.4918
G01 X24.8666 Y35.5344
G01 X24.8818 Y35.5412
G01 X24.8972 Y35.5471
G01 X24.9911 Y35.5807
G01 X25.0069 Y35.5859
G01 X25.0229 Y35.5904
G01 X25.1196 Y35.6146
G01 X25.1358 Y35.6182
G01 X25.1522 Y35.6211
G01 X25.2508 Y35.6357
G01 X25.2673 Y35.6377
G01 X25.2838 Y35.6389
G01 X25.3834 Y35.6438
G01 X25.4000 Y35.6442
G01 X25.4166 Y35.6438
G01 X25.5162 Y35.6389
G01 X25.5327 Y35.6377
G01 X25.5492 Y35.6357
G01 X25.6478 Y35.6211
G01 X25.6642 Y35.6182
G01 X25.6804 Y35.6146
G01 X25.7771 Y35.5904
G01 X25.8010 Y35.5834
G01 X25.9028 Y35.5471
G01 X25.9182 Y35.5412
G01 X25.9334 Y35.5344
G01 X26.0310 Y35.4882
G01 X26.0528 Y35.4762
G01 X26.1454 Y35.4205
G01 X26.1592 Y35.4113
G01 X26.1873 Y35.3906
G01 X30.0241 Y35.3906
G01 X30.6494 Y36.0159
G01 X30.6494 Y36.9833
G01 X30.6198 Y37.0326
G01 X30.6078 Y37.0544
G01 X30.5642 Y37.1464
G01 X30.5544 Y37.1693
G01 X30.5200 Y37.2651
G01 X30.5125 Y37.2888
G01 X30.4858 Y37.3956
G01 X30.4825 Y37.4118
G01 X30.4800 Y37.4282
G01 X30.4759 Y37.4037
G01 X30.4723 Y37.3875
G01 X30.4475 Y37.2888
G01 X30.4400 Y37.2651
G01 X30.4085 Y37.1770
G01 X30.4025 Y37.1616
G01 X30.3958 Y37.1464
G01 X30.3558 Y37.0619
G01 X30.3483 Y37.0470
G01 X30.3402 Y37.0326
G01 X30.2921 Y36.9524
G01 X30.2832 Y36.9384
G01 X30.2737 Y36.9248
G01 X30.2180 Y36.8497
G01 X30.2078 Y36.8367
G01 X30.1969 Y36.8241
G01 X30.1341 Y36.7548
G01 X30.1227 Y36.7428
G01 X30.1107 Y36.7314
G01 X30.0414 Y36.6686
G01 X30.0288 Y36.6577
G01 X30.0158 Y36.6475
G01 X29.9407 Y36.5918
G01 X29.9271 Y36.5823
G01 X29.9131 Y36.5734
G01 X29.8329 Y36.5253
G01 X29.8185 Y36.5172
G01 X29.8036 Y36.5097
G01 X29.7191 Y36.4697
G01 X29.7039 Y36.4630
G01 X29.6885 Y36.4570
G01 X29.6004 Y36.4255
G01 X29.5847 Y36.4203
G01 X29.5687 Y36.4159
G01 X29.4780 Y36.3932
G01 X29.4537 Y36.3880
G01 X29.3530 Y36.3730
G01 X29.3365 Y36.3710
G01 X29.3200 Y36.3697
G01 X29.2266 Y36.3652
G01 X29.2100 Y36.3648
G01 X29.1934 Y36.3652
G01 X29.1000 Y36.3697
G01 X29.0835 Y36.3710
G01 X29.0670 Y36.3730
G01 X28.9745 Y36.3867
G01 X28.9582 Y36.3896
G01 X28.9420 Y36.3932
G01 X28.8513 Y36.4159
G01 X28.8353 Y36.4203
G01 X28.8196 Y36.4255
G01 X28.7315 Y36.4570
G01 X28.7084 Y36.4663
G01 X28.6164 Y36.5097
G01 X28.6015 Y36.5172
G01 X28.5871 Y36.5253
G01 X28.5069 Y36.5734
G01 X28.4929 Y36.5823
G01 X28.4793 Y36.5918
G01 X28.4042 Y36.6475
G01 X28.3848 Y36.6631
G01 X28.3093 Y36.7314
G01 X28.2973 Y36.7428
G01 X28.2859 Y36.7548
G01 X28.2176 Y36.8303
G01 X28.2020 Y36.8497
G01 X28.1415 Y36.9316
G01 X28.1279 Y36.9524
G01 X28.0998 Y36.9994
G01 X24.5859 Y36.9994
G01 X23.9606 Y36.3741
G01 X23.9606 Y30.3858
G01 X23.9871 Y30.3298
G01 X23.9938 Y30.3146
G01 X23.9998 Y30.2992
G01 X24.0292 Y30.2170
G01 X24.0344 Y30.2013
G01 X24.0388 Y30.1853
G01 X24.0619 Y30.0925
G01 X24.0665 Y30.0681
G01 X24.0793 Y29.9818
G01 X24.0813 Y29.9653
G01 X24.0826 Y29.9487
G01 X24.0868 Y29.8616
G01 X24.0872 Y29.8450
G01 X24.0872 Y28.5750
G01 X24.0868 Y28.5584
G01 X24.0826 Y28.4713
G01 X24.0804 Y28.4465
G01 X24.0665 Y28.3519
G01 X24.0637 Y28.3356
G01 X24.0600 Y28.3194
G01 X24.0367 Y28.2267
G01 X24.0292 Y28.2030
G01 X23.9998 Y28.1208
G01 X23.9938 Y28.1054
G01 X23.9871 Y28.0902
G01 X23.9606 Y28.0342
G01 X23.9606 Y27.1259
G01 X24.5859 Y26.5006
G01 X35.5600 Y26.5006
G01 X35.5766 Y26.5002
G01 X35.6513 Y26.4966
G01 X35.6679 Y26.4953
G01 X35.6844 Y26.4933
G01 X35.7584 Y26.4823
G01 X35.7747 Y26.4795
G01 X35.7909 Y26.4758
G01 X35.8635 Y26.4577
G01 X35.8795 Y26.4532
G01 X35.8953 Y26.4480
G01 X35.9657 Y26.4228
G01 X35.9812 Y26.4168
G01 X35.9964 Y26.4101
G01 X36.0640 Y26.3781
G01 X36.0788 Y26.3707
G01 X36.0933 Y26.3625
G01 X36.1575 Y26.3240
G01 X36.1715 Y26.3151
G01 X36.1851 Y26.3056
G01 X36.2451 Y26.2610
G01 X36.2646 Y26.2455
G01 X36.3323 Y26.1841
G01 X37.6141 Y24.9023
G01 X37.6700 Y24.8408
G01 X37.6808 Y24.8282
G01 X37.6910 Y24.8151
G01 X37.7356 Y24.7551
G01 X37.7451 Y24.7415
G01 X37.7540 Y24.7275
G01 X37.7925 Y24.6633
G01 X37.8007 Y24.6488
G01 X37.8081 Y24.6340
G01 X37.8401 Y24.5664
G01 X37.8468 Y24.5512
G01 X37.8528 Y24.5357
G01 X37.8780 Y24.4653
G01 X37.8832 Y24.4495
G01 X37.8877 Y24.4335
G01 X37.9058 Y24.3609
G01 X37.9095 Y24.3447
G01 X37.9123 Y24.3284
G01 X37.9233 Y24.2544
G01 X37.9260 Y24.2296
G01 X37.9302 Y24.1466
G01 X37.9306 Y24.1300
G01 X37.9306 Y22.7067
G01 X37.9602 Y22.6574
G01 X37.9722 Y22.6356
G01 X38.0158 Y22.5436
G01 X38.0256 Y22.5207
G01 X38.0600 Y22.4249
G01 X38.0675 Y22.4012
G01 X38.0942 Y22.2944
G01 X38.0975 Y22.2782
G01 X38.1000 Y22.2618
G01 X38.1025 Y22.2782
G01 X38.1058 Y22.2944
G01 X38.1325 Y22.4012
G01 X38.1400 Y22.4249
G01 X38.1744 Y22.5207
G01 X38.1842 Y22.5436
G01 X38.2278 Y22.6356
G01 X38.2398 Y22.6574
G01 X38.2694 Y22.7067
G01 X38.2694 Y24.1300
G01 X38.2698 Y24.1466
G01 X38.2740 Y24.2296
G01 X38.2767 Y24.2544
G01 X38.2877 Y24.3284
G01 X38.2905 Y24.3447
G01 X38.2942 Y24.3609
G01 X38.3123 Y24.4335
G01 X38.3168 Y24.4495
G01 X38.3220 Y24.4653
G01 X38.3472 Y24.5357
G01 X38.3532 Y24.5512
G01 X38.3599 Y24.5664
G01 X38.3955 Y24.6415
G01 X38.4075 Y24.6633
G01 X38.4460 Y24.7275
G01 X38.4549 Y24.7415
G01 X38.4644 Y24.7551
G01 X38.5090 Y24.8151
G01 X38.5192 Y24.8282
G01 X38.5300 Y24.8408
G01 X38.5803 Y24.8962
G01 X38.5917 Y24.9083
G01 X39.8677 Y26.1841
G01 X39.9292 Y26.2400
G01 X39.9418 Y26.2508
G01 X39.9549 Y26.2610
G01 X40.0149 Y26.3056
G01 X40.0285 Y26.3151
G01 X40.0425 Y26.3240
G01 X40.1067 Y26.3625
G01 X40.1212 Y26.3707
G01 X40.1360 Y26.3781
G01 X40.2036 Y26.4101
G01 X40.2188 Y26.4168
G01 X40.2343 Y26.4228
G01 X40.3047 Y26.4480
G01 X40.3205 Y26.4532
G01 X40.3365 Y26.4577
G01 X40.4091 Y26.4758
G01 X40.4253 Y26.4795
G01 X40.4416 Y26.4823
G01 X40.5156 Y26.4933
G01 X40.5404 Y26.4960
G01 X40.6317 Y26.5005
G01 X46.5341 Y26.5006
G01 X47.1594 Y27.1259
G01 X47.1594 Y31.2941
G01 X46.5341 Y31.9194
G01 X41.9017 Y31.9195
G01 X41.8187 Y31.9234
G01 X41.8021 Y31.9247
G01 X41.7856 Y31.9267
G01 X41.7116 Y31.9377
G01 X41.6953 Y31.9405
G01 X41.6791 Y31.9442
G01 X41.6065 Y31.9623
G01 X41.5905 Y31.9668
G01 X41.5747 Y31.9720
G01 X41.5043 Y31.9972
G01 X41.4888 Y32.0032
G01 X41.4736 Y32.0099
G01 X41.4060 Y32.0419
G01 X41.3912 Y32.0493
G01 X41.3767 Y32.0575
G01 X41.3125 Y32.0960
G01 X41.2985 Y32.1049
G01 X41.2849 Y32.1144
G01 X41.2249 Y32.1590
G01 X41.2118 Y32.1692
G01 X41.1992 Y32.1800
G01 X41.1438 Y32.2303
G01 X41.1317 Y32.2417
G01 X39.8559 Y33.5177
G01 X39.8000 Y33.5792
G01 X39.7892 Y33.5918
G01 X39.7790 Y33.6049
G01 X39.7344 Y33.6649
G01 X39.7249 Y33.6785
G01 X39.7160 Y33.6925
G01 X39.6775 Y33.7567
G01 X39.6693 Y33.7712
G01 X39.6619 Y33.7860
G01 X39.6299 Y33.8536
G01 X39.6201 Y33.8765
G01 X39.5920 Y33.9547
G01 X39.5868 Y33.9705
G01 X39.5823 Y33.9865
G01 X39.5642 Y34.0591
G01 X39.5605 Y34.0753
G01 X39.5577 Y34.0916
G01 X39.5467 Y34.1656
G01 X39.5447 Y34.1821
G01 X39.5434 Y34.1987
G01 X39.5398 Y34.2734
G01 X39.5394 Y34.2900
G01 X39.5394 Y34.7727
G01 X39.5187 Y34.8008
G01 X39.5095 Y34.8146
G01 X39.4538 Y34.9072
G01 X39.4418 Y34.9290
G01 X39.3956 Y35.0266
G01 X39.3888 Y35.0418
G01 X39.3829 Y35.0572
G01 X39.3466 Y35.1590
G01 X39.3396 Y35.1829
G01 X39.3154 Y35.2796
G01 X39.3118 Y35.2958
G01 X39.3089 Y35.3122
G01 X39.2943 Y35.4108
G01 X39.2923 Y35.4273
G01 X39.2911 Y35.4438
G01 X39.2862 Y35.5434
G01 X39.2858 Y35.5600
G01 X39.2862 Y35.5766
G01 X39.2911 Y35.6762
G01 X39.2923 Y35.6927
G01 X39.2943 Y35.7092
G01 X39.3089 Y35.8078
G01 X39.3118 Y35.8242
G01 X39.3154 Y35.8404
G01 X39.3396 Y35.9371
G01 X39.3441 Y35.9531
G01 X39.3493 Y35.9689
G01 X39.3829 Y36.0628
G01 X39.3888 Y36.0782
G01 X39.3956 Y36.0934
G01 X39.4382 Y36.1836
G01 X39.4457 Y36.1984
G01 X39.4538 Y36.2128
G01 X39.5051 Y36.2984
G01 X39.5140 Y36.3124
G01 X39.5235 Y36.3260
G01 X39.5829 Y36.4060
G01 X39.5932 Y36.4191
G01 X39.6040 Y36.4317
G01 X39.6710 Y36.5056
G01 X39.6824 Y36.5176
G01 X39.6944 Y36.5290
G01 X39.7683 Y36.5960
G01 X39.7809 Y36.6068
G01 X39.7940 Y36.6171
G01 X39.8740 Y36.6765
G01 X39.8876 Y36.6860
G01 X39.9016 Y36.6949
G01 X39.9872 Y36.7462
G01 X40.0016 Y36.7543
G01 X40.0164 Y36.7618
G01 X40.1066 Y36.8044
G01 X40.1218 Y36.8112
G01 X40.1372 Y36.8171
G01 X40.2311 Y36.8507
G01 X40.2469 Y36.8559
G01 X40.2629 Y36.8604
G01 X40.3596 Y36.8846
G01 X40.3758 Y36.8882
G01 X40.3922 Y36.8911
G01 X40.4908 Y36.9057
G01 X40.5073 Y36.9077
G01 X40.5238 Y36.9089
G01 X40.6234 Y36.9138
G01 X40.6400 Y36.9142
G01 X40.6566 Y36.9138
G01 X40.7562 Y36.9089
G01 X40.7727 Y36.9077
G01 X40.7892 Y36.9057
G01 X40.8878 Y36.8911
G01 X40.9042 Y36.8882
G01 X40.9204 Y36.8846
G01 X41.0171 Y36.8604
G01 X41.0331 Y36.8559
G01 X41.0489 Y36.8507
G01 X41.1428 Y36.8171
G01 X41.1582 Y36.8112
G01 X41.1734 Y36.8044
G01 X41.2636 Y36.7618
G01 X41.2784 Y36.7543
G01 X41.2928 Y36.7462
G01 X41.3784 Y36.6949
G01 X41.3924 Y36.6860
G01 X41.4060 Y36.6765
G01 X41.4860 Y36.6171
G01 X41.4991 Y36.6068
G01 X41.5117 Y36.5960
G01 X41.5856 Y36.5290
G01 X41.5976 Y36.5176
G01 X41.6090 Y36.5056
G01 X41.6760 Y36.4317
G01 X41.6868 Y36.4191
G01 X41.6971 Y36.4060
G01 X41.7565 Y36.3260
G01 X41.7660 Y36.3124
G01 X41.7749 Y36.2984
G01 X41.8262 Y36.2128
G01 X41.8343 Y36.1984
G01 X41.8418 Y36.1836
G01 X41.8844 Y36.0934
G01 X41.8912 Y36.0782
G01 X41.8971 Y36.0628
G01 X41.9307 Y35.9689
G01 X41.9359 Y35.9531
G01 X41.9404 Y35.9371
G01 X41.9646 Y35.8404
G01 X41.9682 Y35.8242
G01 X41.9711 Y35.8078
G01 X41.9868 Y35.7010
G01 X41.9889 Y35.6762
G01 X41.9938 Y35.5766
G01 X41.9942 Y35.5600
G01 X41.9938 Y35.5434
G01 X41.9889 Y35.4438
G01 X41.9877 Y35.4273
G01 X41.9857 Y35.4108
G01 X41.9711 Y35.3122
G01 X41.9682 Y35.2958
G01 X41.9646 Y35.2796
G01 X41.9404 Y35.1829
G01 X41.9359 Y35.1669
G01 X41.9307 Y35.1511
G01 X41.8971 Y35.0572
G01 X41.8879 Y35.0341
G01 X41.8418 Y34.9364
G01 X41.8303 Y34.9143
G01 X41.7705 Y34.8146
G01 X41.7613 Y34.8008
G01 X41.7406 Y34.7727
G01 X41.7406 Y34.7459
G01 X42.3659 Y34.1206
G01 X46.9983 Y34.1205
G01 X47.0896 Y34.1160
G01 X47.1144 Y34.1133
G01 X47.1884 Y34.1023
G01 X47.2047 Y34.0995
G01 X47.2209 Y34.0958
G01 X47.2935 Y34.0777
G01 X47.3095 Y34.0732
G01 X47.3253 Y34.0680
G01 X47.3957 Y34.0428
G01 X47.4112 Y34.0368
G01 X47.4264 Y34.0301
G01 X47.4940 Y33.9981
G01 X47.5088 Y33.9907
G01 X47.5233 Y33.9825
G01 X47.5875 Y33.9440
G01 X47.6015 Y33.9351
G01 X47.6151 Y33.9256
G01 X47.6751 Y33.8810
G01 X47.6946 Y33.8655
G01 X47.7623 Y33.8041
G01 X49.0383 Y32.5283
G01 X49.0497 Y32.5162
G01 X49.1000 Y32.4608
G01 X49.1108 Y32.4482
G01 X49.1210 Y32.4351
G01 X49.1656 Y32.3751
G01 X49.1751 Y32.3615
G01 X49.1840 Y32.3475
G01 X49.2225 Y32.2833
G01 X49.2307 Y32.2688
G01 X49.2381 Y32.2540
G01 X49.2701 Y32.1864
G01 X49.2768 Y32.1712
G01 X49.2828 Y32.1557
G01 X49.3080 Y32.0853
G01 X49.3155 Y32.0615
G01 X49.3378 Y31.9728
G01 X49.3423 Y31.9484
G01 X49.3533 Y31.8744
G01 X49.3553 Y31.8579
G01 X49.3566 Y31.8413
G01 X49.3602 Y31.7666
G01 X49.3606 Y31.7500
G01 X49.3605 Y26.6617
G01 X49.3560 Y26.5704
G01 X49.3533 Y26.5456
G01 X49.3423 Y26.4716
G01 X49.3395 Y26.4553
G01 X49.3358 Y26.4391
G01 X49.3177 Y26.3665
G01 X49.3132 Y26.3505
G01 X49.3080 Y26.3347
G01 X49.2828 Y26.2643
G01 X49.2768 Y26.2488
G01 X49.2701 Y26.2336
G01 X49.2381 Y26.1660
G01 X49.2307 Y26.1512
G01 X49.2225 Y26.1367
G01 X49.1840 Y26.0725
G01 X49.1751 Y26.0585
G01 X49.1656 Y26.0449
G01 X49.1210 Y25.9849
G01 X49.1055 Y25.9654
G01 X49.0441 Y25.8977
G01 X47.7683 Y24.6217
G01 X47.7562 Y24.6103
G01 X47.7008 Y24.5600
G01 X47.6882 Y24.5492
G01 X47.6751 Y24.5390
G01 X47.6151 Y24.4944
G01 X47.6015 Y24.4849
G01 X47.5875 Y24.4760
G01 X47.5233 Y24.4375
G01 X47.5088 Y24.4293
G01 X47.4940 Y24.4219
G01 X47.4264 Y24.3899
G01 X47.4112 Y24.3832
G01 X47.3957 Y24.3772
G01 X47.3253 Y24.3520
G01 X47.3015 Y24.3445
G01 X47.2128 Y24.3222
G01 X47.1884 Y24.3177
G01 X47.1144 Y24.3067
G01 X47.0979 Y24.3047
G01 X47.0813 Y24.3034
G01 X47.0066 Y24.2998
G01 X46.9900 Y24.2994
G01 X41.0959 Y24.2994
G01 X40.4706 Y23.6741
G01 X40.4706 Y22.7067
G01 X40.5002 Y22.6574
G01 X40.5122 Y22.6356
G01 X40.5558 Y22.5436
G01 X40.5656 Y22.5207
G01 X40.6000 Y22.4249
G01 X40.6075 Y22.4012
G01 X40.6342 Y22.2944
G01 X40.6375 Y22.2782
G01 X40.6400 Y22.2618
G01 X40.6425 Y22.2782
G01 X40.6458 Y22.2944
G01 X40.6725 Y22.4012
G01 X40.6800 Y22.4249
G01 X40.7144 Y22.5207
G01 X40.7242 Y22.5436
G01 X40.7642 Y22.6281
G01 X40.7717 Y22.6430
G01 X40.7798 Y22.6574
G01 X40.8323 Y22.7446
G01 X40.8463 Y22.7652
G01 X40.9020 Y22.8403
G01 X40.9122 Y22.8533
G01 X40.9231 Y22.8659
G01 X40.9859 Y22.9352
G01 X40.9973 Y22.9472
G01 X41.0093 Y22.9586
G01 X41.0786 Y23.0214
G01 X41.0912 Y23.0323
G01 X41.1042 Y23.0425
G01 X41.1861 Y23.1030
G01 X41.2069 Y23.1166
G01 X41.2871 Y23.1647
G01 X41.3015 Y23.1728
G01 X41.3164 Y23.1803
G01 X41.4009 Y23.2203
G01 X41.4161 Y23.2270
G01 X41.4315 Y23.2330
G01 X41.5196 Y23.2645
G01 X41.5353 Y23.2697
G01 X41.5513 Y23.2741
G01 X41.6501 Y23.2987
G01 X41.6745 Y23.3033
G01 X41.7670 Y23.3170
G01 X41.7835 Y23.3190
G01 X41.8000 Y23.3203
G01 X41.9017 Y23.3251
G01 X41.9266 Y23.3248
G01 X42.0282 Y23.3197
G01 X42.0448 Y23.3181
G01 X42.0769 Y23.3134
G01 X42.4077 Y23.6441
G01 X42.4692 Y23.7000
G01 X42.4818 Y23.7108
G01 X42.4949 Y23.7210
G01 X42.5549 Y23.7656
G01 X42.5685 Y23.7751
G01 X42.5825 Y23.7840
G01 X42.6467 Y23.8225
G01 X42.6612 Y23.8307
G01 X42.6760 Y23.8381
G01 X42.7436 Y23.8701
G01 X42.7588 Y23.8768
G01 X42.7743 Y23.8828
G01 X42.8526 Y23.9107
G01 X42.8765 Y23.9177
G01 X42.9491 Y23.9358
G01 X42.9653 Y23.9395
G01 X42.9816 Y23.9423
G01 X43.0556 Y23.9533
G01 X43.0721 Y23.9553
G01 X43.0887 Y23.9566
G01 X43.1634 Y23.9602
G01 X43.1800 Y23.9606
G01 X50.8942 Y23.9606
G01 X50.9502 Y23.9871
G01 X50.9654 Y23.9938
G01 X50.9808 Y23.9998
G01 X51.0630 Y24.0292
G01 X51.0867 Y24.0367
G01 X51.1794 Y24.0600
G01 X51.1956 Y24.0637
G01 X51.2119 Y24.0665
G01 X51.3065 Y24.0804
G01 X51.3313 Y24.0826
G01 X51.4184 Y24.0868
G01 X51.4350 Y24.0872
G01 X52.7133 Y24.0871
G01 X52.8087 Y24.0826
G01 X52.8253 Y24.0813
G01 X52.8418 Y24.0793
G01 X52.9281 Y24.0665
G01 X52.9444 Y24.0637
G01 X52.9606 Y24.0600
G01 X53.0453 Y24.0388
G01 X53.0613 Y24.0344
G01 X53.0770 Y24.0292
G01 X53.1669 Y23.9969
G01 X53.1898 Y23.9871
G01 X53.2687 Y23.9498
G01 X53.2835 Y23.9423
G01 X53.2980 Y23.9342
G01 X53.3728 Y23.8893
G01 X53.3868 Y23.8804
G01 X53.4004 Y23.8709
G01 X53.4705 Y23.8189
G01 X53.4836 Y23.8087
G01 X53.4961 Y23.7978
G01 X53.5608 Y23.7392
G01 X53.5728 Y23.7278
G01 X53.5842 Y23.7158
G01 X53.6428 Y23.6511
G01 X53.6589 Y23.6321
G01 X53.7159 Y23.5554
G01 X53.7254 Y23.5418
G01 X53.7343 Y23.5278
G01 X53.7792 Y23.4530
G01 X53.7873 Y23.4385
G01 X53.7948 Y23.4237
G01 X53.8321 Y23.3448
G01 X53.8388 Y23.3296
G01 X53.8448 Y23.3142
G01 X53.8742 Y23.2320
G01 X53.8794 Y23.2163
G01 X53.8838 Y23.2003
G01 X53.9050 Y23.1156
G01 X53.9087 Y23.0994
G01 X53.9115 Y23.0831
G01 X53.9243 Y22.9968
G01 X53.9263 Y22.9803
G01 X53.9276 Y22.9637
G01 X53.9318 Y22.8766
G01 X53.9322 Y22.8600
G01 X53.9318 Y22.8434
G01 X53.9276 Y22.7563
G01 X53.9263 Y22.7397
G01 X53.9243 Y22.7232
G01 X53.9102 Y22.6287
G01 X53.9050 Y22.6044
G01 X53.8838 Y22.5197
G01 X53.8794 Y22.5037
G01 X53.8742 Y22.4880
G01 X53.8448 Y22.4058
G01 X53.8388 Y22.3904
G01 X53.8321 Y22.3752
G01 X53.7948 Y22.2963
G01 X53.7873 Y22.2815
G01 X53.7792 Y22.2670
G01 X53.7343 Y22.1922
G01 X53.7254 Y22.1782
G01 X53.7159 Y22.1646
G01 X53.6589 Y22.0879
G01 X53.6428 Y22.0689
G01 X53.5842 Y22.0042
G01 X53.5728 Y21.9922
G01 X53.5608 Y21.9808
G01 X53.4961 Y21.9222
G01 X53.4836 Y21.9113
G01 X53.4705 Y21.9011
G01 X53.4004 Y21.8491
G01 X53.3868 Y21.8396
G01 X53.3728 Y21.8307
G01 X53.2980 Y21.7858
G01 X53.2835 Y21.7777
G01 X53.2687 Y21.7702
G01 X53.1898 Y21.7329
G01 X53.1669 Y21.7231
G01 X53.0770 Y21.6908
G01 X53.0613 Y21.6856
G01 X53.0453 Y21.6812
G01 X52.9606 Y21.6600
G01 X52.9444 Y21.6563
G01 X52.9281 Y21.6535
G01 X52.8335 Y21.6396
G01 X52.8087 Y21.6374
G01 X52.7216 Y21.6332
G01 X52.7050 Y21.6328
G01 X51.4350 Y21.6328
G01 X51.4184 Y21.6332
G01 X51.3313 Y21.6374
G01 X51.3147 Y21.6387
G01 X51.2982 Y21.6407
G01 X51.2119 Y21.6535
G01 X51.1875 Y21.6581
G01 X51.0947 Y21.6812
G01 X51.0787 Y21.6856
G01 X51.0630 Y21.6908
G01 X50.9808 Y21.7202
G01 X50.9654 Y21.7262
G01 X50.9502 Y21.7329
G01 X50.8942 Y21.7594
G01 X43.6359 Y21.7594
G01 X43.2007 Y21.3242
G01 X43.2006 Y21.1372
G01 X43.1958 Y21.0355
G01 X43.1945 Y21.0190
G01 X43.1925 Y21.0025
G01 X43.1788 Y20.9100
G01 X43.1759 Y20.8937
G01 X43.1723 Y20.8775
G01 X43.1496 Y20.7868
G01 X43.1452 Y20.7708
G01 X43.1400 Y20.7551
G01 X43.1056 Y20.6593
G01 X43.0958 Y20.6364
G01 X43.0558 Y20.5519
G01 X43.0483 Y20.5370
G01 X43.0402 Y20.5226
G01 X42.9921 Y20.4424
G01 X42.9832 Y20.4284
G01 X42.9737 Y20.4148
G01 X42.9180 Y20.3397
G01 X42.9078 Y20.3267
G01 X42.8969 Y20.3141
G01 X42.8341 Y20.2448
G01 X42.8227 Y20.2328
G01 X42.8107 Y20.2214
G01 X42.7323 Y20.1506
G01 X43.9941 Y20.1506
G01 X44.9417 Y21.0983
G01 X44.9538 Y21.1097
G01 X45.0092 Y21.1600
G01 X45.0283 Y21.1760
G01 X45.0949 Y21.2256
G01 X45.1085 Y21.2351
G01 X45.1225 Y21.2440
G01 X45.1867 Y21.2825
G01 X45.2012 Y21.2907
G01 X45.2160 Y21.2981
G01 X45.2836 Y21.3301
G01 X45.2988 Y21.3368
G01 X45.3143 Y21.3428
G01 X45.3847 Y21.3680
G01 X45.4005 Y21.3732
G01 X45.4165 Y21.3777
G01 X45.4891 Y21.3958
G01 X45.5053 Y21.3995
G01 X45.5216 Y21.4023
G01 X45.5956 Y21.4133
G01 X45.6121 Y21.4153
G01 X45.6287 Y21.4166
G01 X45.7034 Y21.4202
G01 X45.7200 Y21.4206
G01 X50.8942 Y21.4206
G01 X50.9502 Y21.4471
G01 X50.9731 Y21.4569
G01 X51.0630 Y21.4892
G01 X51.0867 Y21.4967
G01 X51.1794 Y21.5200
G01 X51.1956 Y21.5237
G01 X51.2119 Y21.5265
G01 X51.2982 Y21.5393
G01 X51.3230 Y21.5421
G01 X51.4184 Y21.5468
G01 X51.4350 Y21.5472
G01 X52.7050 Y21.5472
G01 X52.7216 Y21.5468
G01 X52.8087 Y21.5426
G01 X52.8253 Y21.5413
G01 X52.8418 Y21.5393
G01 X52.9281 Y21.5265
G01 X52.9444 Y21.5237
G01 X52.9606 Y21.5200
G01 X53.0453 Y21.4988
G01 X53.0613 Y21.4944
G01 X53.0770 Y21.4892
G01 X53.1592 Y21.4598
G01 X53.1746 Y21.4538
G01 X53.1898 Y21.4471
G01 X53.2687 Y21.4098
G01 X53.2835 Y21.4023
G01 X53.2980 Y21.3942
G01 X53.3799 Y21.3449
G01 X53.4004 Y21.3309
G01 X53.4705 Y21.2789
G01 X53.4836 Y21.2687
G01 X53.4961 Y21.2578
G01 X53.5608 Y21.1992
G01 X53.5728 Y21.1878
G01 X53.5842 Y21.1758
G01 X53.6428 Y21.1111
G01 X53.6537 Y21.0986
G01 X53.6639 Y21.0855
G01 X53.7159 Y21.0154
G01 X53.7299 Y20.9949
G01 X53.7792 Y20.9130
G01 X53.7873 Y20.8985
G01 X53.7948 Y20.8837
G01 X53.8321 Y20.8048
G01 X53.8388 Y20.7896
G01 X53.8448 Y20.7742
G01 X53.8742 Y20.6920
G01 X53.8794 Y20.6763
G01 X53.8838 Y20.6603
G01 X53.9050 Y20.5756
G01 X53.9087 Y20.5594
G01 X53.9115 Y20.5431
G01 X53.9243 Y20.4568
G01 X53.9263 Y20.4403
G01 X53.9276 Y20.4237
G01 X53.9321 Y20.3283
G01 X53.9318 Y20.3034
G01 X53.9276 Y20.2163
G01 X53.9263 Y20.1997
G01 X53.9243 Y20.1832
G01 X53.9115 Y20.0969
G01 X53.9087 Y20.0806
G01 X53.9050 Y20.0644
G01 X53.8838 Y19.9797
G01 X53.8794 Y19.9637
G01 X53.8742 Y19.9480
G01 X53.8448 Y19.8658
G01 X53.8356 Y19.8427
G01 X53.7948 Y19.7563
G01 X53.7873 Y19.7415
G01 X53.7792 Y19.7270
G01 X53.7343 Y19.6522
G01 X53.7254 Y19.6382
G01 X53.7159 Y19.6246
G01 X53.6639 Y19.5545
G01 X53.6537 Y19.5414
G01 X53.6428 Y19.5289
G01 X53.5842 Y19.4642
G01 X53.5728 Y19.4522
G01 X53.5608 Y19.4408
G01 X53.4961 Y19.3822
G01 X53.4771 Y19.3661
G01 X53.4004 Y19.3091
G01 X53.3868 Y19.2996
G01 X53.3728 Y19.2907
G01 X53.2980 Y19.2458
G01 X53.2835 Y19.2377
G01 X53.2687 Y19.2302
G01 X53.1898 Y19.1929
G01 X53.1746 Y19.1862
G01 X53.1592 Y19.1802
G01 X53.0770 Y19.1508
G01 X53.0613 Y19.1456
G01 X53.0453 Y19.1412
G01 X52.9606 Y19.1200
G01 X52.9444 Y19.1163
G01 X52.9281 Y19.1135
G01 X52.8335 Y19.0996
G01 X52.8087 Y19.0974
G01 X52.7216 Y19.0932
G01 X52.7050 Y19.0928
G01 X51.4350 Y19.0928
G01 X51.4184 Y19.0932
G01 X51.3313 Y19.0974
G01 X51.3147 Y19.0987
G01 X51.2982 Y19.1007
G01 X51.2119 Y19.1135
G01 X51.1875 Y19.1181
G01 X51.0947 Y19.1412
G01 X51.0787 Y19.1456
G01 X51.0630 Y19.1508
G01 X50.9808 Y19.1802
G01 X50.9654 Y19.1862
G01 X50.9502 Y19.1929
G01 X50.8942 Y19.2194
G01 X46.1759 Y19.2194
G01 X45.2283 Y18.2717
G01 X45.2162 Y18.2603
G01 X45.1608 Y18.2100
G01 X45.1417 Y18.1940
G01 X45.0751 Y18.1444
G01 X45.0615 Y18.1349
G01 X45.0475 Y18.1260
G01 X44.9833 Y18.0875
G01 X44.9688 Y18.0793
G01 X44.9540 Y18.0719
G01 X44.8864 Y18.0399
G01 X44.8712 Y18.0332
G01 X44.8557 Y18.0272
G01 X44.7853 Y18.0020
G01 X44.7695 Y17.9968
G01 X44.7535 Y17.9923
G01 X44.6809 Y17.9742
G01 X44.6647 Y17.9705
G01 X44.6484 Y17.9677
G01 X44.5744 Y17.9567
G01 X44.5496 Y17.9540
G01 X44.4666 Y17.9498
G01 X44.4500 Y17.9494
G01 X35.5600 Y17.9494
G01 X35.5434 Y17.9498
G01 X35.4687 Y17.9534
G01 X35.4521 Y17.9547
G01 X35.4356 Y17.9567
G01 X35.3616 Y17.9677
G01 X35.3453 Y17.9705
G01 X35.3291 Y17.9742
G01 X35.2485 Y17.9945
G01 X35.2247 Y18.0020
G01 X35.1543 Y18.0272
G01 X35.1388 Y18.0332
G01 X35.1236 Y18.0399
G01 X35.0560 Y18.0719
G01 X35.0412 Y18.0793
G01 X35.0267 Y18.0875
G01 X34.9625 Y18.1260
G01 X34.9485 Y18.1349
G01 X34.9349 Y18.1444
G01 X34.8749 Y18.1890
G01 X34.8618 Y18.1992
G01 X34.8492 Y18.2100
G01 X34.7877 Y18.2659
G01 X31.2941 Y21.7594
G01 X23.6473 Y21.7594
G01 X23.6192 Y21.7387
G01 X23.6054 Y21.7295
G01 X23.5057 Y21.6697
G01 X23.4836 Y21.6582
G01 X23.3859 Y21.6121
G01 X23.3628 Y21.6029
G01 X23.2689 Y21.5693
G01 X23.2531 Y21.5641
G01 X23.2371 Y21.5596
G01 X23.1323 Y21.5335
G01 X23.1078 Y21.5289
G01 X23.0092 Y21.5143
G01 X22.9927 Y21.5123
G01 X22.9762 Y21.5111
G01 X22.8766 Y21.5062
G01 X22.8600 Y21.5058
G01 X22.8434 Y21.5062
G01 X22.7438 Y21.5111
G01 X22.7273 Y21.5123
G01 X22.7108 Y21.5143
G01 X22.6122 Y21.5289
G01 X22.5877 Y21.5335
G01 X22.4829 Y21.5596
G01 X22.4669 Y21.5641
G01 X22.4511 Y21.5693
G01 X22.3572 Y21.6029
G01 X22.3418 Y21.6088
G01 X22.3266 Y21.6156
G01 X22.2364 Y21.6582
G01 X22.2216 Y21.6657
G01 X22.2072 Y21.6738
G01 X22.1216 Y21.7251
G01 X22.1076 Y21.7340
G01 X22.0940 Y21.7435
G01 X22.0140 Y21.8029
G01 X22.0009 Y21.8132
G01 X21.9883 Y21.8240
G01 X21.9144 Y21.8910
G01 X21.9024 Y21.9024
G01 X21.8910 Y21.9144
G01 X21.8240 Y21.9883
G01 X21.8132 Y22.0009
G01 X21.8029 Y22.0140
G01 X21.7435 Y22.0940
G01 X21.7340 Y22.1076
G01 X21.7251 Y22.1216
G01 X21.6738 Y22.2072
G01 X21.6618 Y22.2290
G01 X21.6156 Y22.3266
G01 X21.6088 Y22.3418
G01 X21.6029 Y22.3572
G01 X21.5666 Y22.4590
G01 X21.5596 Y22.4829
G01 X21.5335 Y22.5877
G01 X21.5303 Y22.6040
G01 X21.5250 Y22.6384
G01 X19.8641 Y24.2994
G01 X11.8859 Y24.2994
G01 X11.2606 Y23.6741
G01 X11.2606 Y20.1854
G01 X11.2798 Y20.1771
G01 X11.3587 Y20.1398
G01 X11.3735 Y20.1323
G01 X11.3880 Y20.1242
G01 X11.4699 Y20.0749
G01 X11.4904 Y20.0609
G01 X11.5671 Y20.0039
G01 X11.5799 Y19.9933
G01 X11.5994 Y19.9758
G00 Z3.0000
G00 X12.6834 Y27.3482
G01 F60.00
G01 Z-0.1001
G01 F200.00
G01 X12.7000 Y27.3478
G01 X12.7166 Y27.3482
G01 X12.8037 Y27.3524
G01 X12.8203 Y27.3537
G01 X12.8368 Y27.3557
G01 X12.9231 Y27.3685
G01 X12.9394 Y27.3713
G01 X12.9556 Y27.3750
G01 X13.0403 Y27.3962
G01 X13.0563 Y27.4006
G01 X13.0720 Y27.4058
G01 X13.1542 Y27.4352
G01 X13.1696 Y27.4412
G01 X13.1848 Y27.4479
G01 X13.2637 Y27.4852
G01 X13.2785 Y27.4927
G01 X13.2930 Y27.5008
G01 X13.3678 Y27.5457
G01 X13.3818 Y27.5546
G01 X13.3954 Y27.5641
G01 X13.4655 Y27.6161
G01 X13.4786 Y27.6263
G01 X13.4911 Y27.6372
G01 X13.5558 Y27.6958
G01 X13.5678 Y27.7072
G01 X13.5792 Y27.7192
G01 X13.6378 Y27.7839
G01 X13.6487 Y27.7964
G01 X13.6589 Y27.8095
G01 X13.7109 Y27.8796
G01 X13.7204 Y27.8932
G01 X13.7293 Y27.9072
G01 X13.7742 Y27.9820
G01 X13.7823 Y27.9965
G01 X13.7898 Y28.0113
G01 X13.8271 Y28.0902
G01 X13.8338 Y28.1054
G01 X13.8398 Y28.1208
G01 X13.8692 Y28.2030
G01 X13.8744 Y28.2187
G01 X13.8788 Y28.2347
G01 X13.9000 Y28.3194
G01 X13.9037 Y28.3356
G01 X13.9065 Y28.3519
G01 X13.9193 Y28.4382
G01 X13.9213 Y28.4547
G01 X13.9226 Y28.4713
G01 X13.9268 Y28.5584
G01 X13.9272 Y28.5750
G01 X13.9272 Y29.8450
G01 X13.9268 Y29.8616
G01 X13.9221 Y29.9570
G01 X13.9193 Y29.9818
G01 X13.9065 Y30.0681
G01 X13.9037 Y30.0844
G01 X13.9000 Y30.1006
G01 X13.8788 Y30.1853
G01 X13.8744 Y30.2013
G01 X13.8692 Y30.2170
G01 X13.8398 Y30.2992
G01 X13.8338 Y30.3146
G01 X13.8271 Y30.3298
G01 X13.7862 Y30.4162
G01 X13.7742 Y30.4380
G01 X13.7293 Y30.5128
G01 X13.7204 Y30.5268
G01 X13.7109 Y30.5404
G01 X13.6589 Y30.6105
G01 X13.6487 Y30.6236
G01 X13.6378 Y30.6361
G01 X13.5792 Y30.7008
G01 X13.5678 Y30.7128
G01 X13.5558 Y30.7242
G01 X13.4911 Y30.7828
G01 X13.4786 Y30.7937
G01 X13.4655 Y30.8039
G01 X13.3954 Y30.8559
G01 X13.3818 Y30.8654
G01 X13.3678 Y30.8743
G01 X13.2930 Y30.9192
G01 X13.2785 Y30.9273
G01 X13.2637 Y30.9348
G01 X13.1848 Y30.9721
G01 X13.1696 Y30.9788
G01 X13.1542 Y30.9848
G01 X13.0720 Y31.0142
G01 X13.0563 Y31.0194
G01 X13.0403 Y31.0238
G01 X12.9556 Y31.0450
G01 X12.9394 Y31.0487
G01 X12.9231 Y31.0515
G01 X12.8368 Y31.0643
G01 X12.8203 Y31.0663
G01 X12.8037 Y31.0676
G01 X12.7166 Y31.0718
G01 X12.7000 Y31.0722
G01 X12.6834 Y31.0718
G01 X12.5963 Y31.0676
G01 X12.5797 Y31.0663
G01 X12.5632 Y31.0643
G01 X12.4769 Y31.0515
G01 X12.4606 Y31.0487
G01 X12.4444 Y31.0450
G01 X12.3597 Y31.0238
G01 X12.3437 Y31.0194
G01 X12.3280 Y31.0142
G01 X12.2458 Y30.9848
G01 X12.2304 Y30.9788
G01 X12.2152 Y30.9721
G01 X12.1363 Y30.9348
G01 X12.1215 Y30.9273
G01 X12.1070 Y30.9192
G01 X12.0322 Y30.8743
G01 X12.0182 Y30.8654
G01 X12.0046 Y30.8559
G01 X11.9345 Y30.8039
G01 X11.9214 Y30.7937
G01 X11.9089 Y30.7828
G01 X11.8442 Y30.7242
G01 X11.8322 Y30.7128
G01 X11.8208 Y30.7008
G01 X11.7622 Y30.6361
G01 X11.7513 Y30.6236
G01 X11.7411 Y30.6105
G01 X11.6891 Y30.5404
G01 X11.6796 Y30.5268
G01 X11.6707 Y30.5128
G01 X11.6258 Y30.4380
G01 X11.6177 Y30.4235
G01 X11.6102 Y30.4087
G01 X11.5729 Y30.3298
G01 X11.5662 Y30.3146
G01 X11.5602 Y30.2992
G01 X11.5308 Y30.2170
G01 X11.5256 Y30.2013
G01 X11.5212 Y30.1853
G01 X11.5000 Y30.1006
G01 X11.4963 Y30.0844
G01 X11.4935 Y30.0681
G01 X11.4807 Y29.9818
G01 X11.4787 Y29.9653
G01 X11.4774 Y29.9487
G01 X11.4732 Y29.8616
G01 X11.4728 Y29.8450
G01 X11.4728 Y28.5750
G01 X11.4732 Y28.5584
G01 X11.4779 Y28.4630
G01 X11.4807 Y28.4382
G01 X11.4935 Y28.3519
G01 X11.4963 Y28.3356
G01 X11.5000 Y28.3194
G01 X11.5212 Y28.2347
G01 X11.5256 Y28.2187
G01 X11.5308 Y28.2030
G01 X11.5602 Y28.1208
G01 X11.5662 Y28.1054
G01 X11.5729 Y28.0902
