(G-CODE GENERATED BY FLATCAM v8.994 - www.flatcam.org - Version Date: 2020/11/7)

(Name: sifra_slave10.drl_cnc)
(Type: G-code from Geometry)
(Units: MM)

(Created on Wednesday, 22 February 2023 at 09:07)

(This preprocessor is the default preprocessor used by FlatCAM.)
(It is made to work with MACH3 compatible motion controllers.)


(TOOLS DIAMETER: )
(Tool: 1 -> Dia: 0.9999999999999999)
(Tool: 2 -> Dia: 1.01)

(FEEDRATE Z: )
(Tool: 1 -> Feedrate: 200.0)
(Tool: 2 -> Feedrate: 200.0)

(FEEDRATE RAPIDS: )
(Tool: 1 -> Feedrate Rapids: 1500)
(Tool: 2 -> Feedrate Rapids: 1500)

(Z_CUT: )
(Tool: 1 -> Z_Cut: -1.8)
(Tool: 2 -> Z_Cut: -1.8)

(Tools Offset: )
(Tool: 1 -> Offset Z: 0.0)
(Tool: 2 -> Offset Z: 0.0)

(Z_MOVE: )
(Tool: 1 -> Z_Move: 2)
(Tool: 2 -> Z_Move: 2)

(Z Toolchange: 15 mm)
(X,Y Toolchange: 0.0000, 0.0000 mm)
(Z Start: None mm)
(Z End: 0.5 mm)
(X,Y End: None mm)
(Steps per circle: 64)
(Preprocessor Excellon: default)

(X range:    3.3050 ...   61.4650  mm)
(Y range:    3.3050 ...   61.4650  mm)

(Spindle Speed: 10000 RPM)
G21
G90
G94

G01 F200.00

M5
G00 Z15.0000
T1
G00 X0.0000 Y0.0000                
M6
(MSG, Change to Tool Dia = 1.0000 ||| Total drills for tool T1 = 75)
M0
G00 Z15.0000

G01 F200.00
M03 S10000
G00 X10.1600 Y52.0700
G01 Z-1.8000
G01 Z0
G00 Z2.0000
G00 X17.7800 Y59.6900
G01 Z-1.8000
G01 Z0
G00 Z2.0000
G00 X20.3200 Y59.6900
G01 Z-1.8000
G01 Z0
G00 Z2.0000
G00 X22.8600 Y59.6900
G01 Z-1.8000
G01 Z0
G00 Z2.0000
G00 X25.4000 Y59.6900
G01 Z-1.8000
G01 Z0
G00 Z2.0000
G00 X27.9400 Y59.6900
G01 Z-1.8000
G01 Z0
G00 Z2.0000
G00 X30.4800 Y59.6900
G01 Z-1.8000
G01 Z0
G00 Z2.0000
G00 X33.0200 Y59.6900
G01 Z-1.8000
G01 Z0
G00 Z2.0000
G00 X35.5600 Y59.6900
G01 Z-1.8000
G01 Z0
G00 Z2.0000
G00 X60.9600 Y60.9600
G01 Z-1.8000
G01 Z0
G00 Z2.0000
G00 X55.8800 Y48.2600
G01 Z-1.8000
G01 Z0
G00 Z2.0000
G00 X55.8800 Y43.1800
G01 Z-1.8000
G01 Z0
G00 Z2.0000
G00 X55.8800 Y35.5600
G01 Z-1.8000
G01 Z0
G00 Z2.0000
G00 X57.1500 Y30.4800
G01 Z-1.8000
G01 Z0
G00 Z2.0000
G00 X54.6100 Y30.4800
G01 Z-1.8000
G01 Z0
G00 Z2.0000
G00 X52.0700 Y30.4800
G01 Z-1.8000
G01 Z0
G00 Z2.0000
G00 X52.0700 Y22.8600
G01 Z-1.8000
G01 Z0
G00 Z2.0000
G00 X52.0700 Y20.3200
G01 Z-1.8000
G01 Z0
G00 Z2.0000
G00 X52.0700 Y17.7800
G01 Z-1.8000
G01 Z0
G00 Z2.0000
G00 X52.0700 Y15.2400
G01 Z-1.8000
G01 Z0
G00 Z2.0000
G00 X41.9100 Y21.5900
G01 Z-1.8000
G01 Z0
G00 Z2.0000
G00 X39.3700 Y21.5900
G01 Z-1.8000
G01 Z0
G00 Z2.0000
G00 X36.8300 Y21.5900
G01 Z-1.8000
G01 Z0
G00 Z2.0000
G00 X38.1000 Y29.2100
G01 Z-1.8000
G01 Z0
G00 Z2.0000
G00 X40.6400 Y29.2100
G01 Z-1.8000
G01 Z0
G00 Z2.0000
G00 X43.1800 Y29.2100
G01 Z-1.8000
G01 Z0
G00 Z2.0000
G00 X45.7200 Y29.2100
G01 Z-1.8000
G01 Z0
G00 Z2.0000
G00 X44.4500 Y35.5600
G01 Z-1.8000
G01 Z0
G00 Z2.0000
G00 X40.6400 Y35.5600
G01 Z-1.8000
G01 Z0
G00 Z2.0000
G00 X35.5600 Y34.2900
G01 Z-1.8000
G01 Z0
G00 Z2.0000
G00 X35.5600 Y29.2100
G01 Z-1.8000
G01 Z0
G00 Z2.0000
G00 X33.0200 Y29.2100
G01 Z-1.8000
G01 Z0
G00 Z2.0000
G00 X30.4800 Y29.2100
G01 Z-1.8000
G01 Z0
G00 Z2.0000
G00 X27.9400 Y29.2100
G01 Z-1.8000
G01 Z0
G00 Z2.0000
G00 X25.4000 Y34.2900
G01 Z-1.8000
G01 Z0
G00 Z2.0000
G00 X29.2100 Y38.1000
G01 Z-1.8000
G01 Z0
G00 Z2.0000
G00 X31.7500 Y38.1000
G01 Z-1.8000
G01 Z0
G00 Z2.0000
G00 X34.2900 Y38.1000
G01 Z-1.8000
G01 Z0
G00 Z2.0000
G00 X40.6400 Y45.7200
G01 Z-1.8000
G01 Z0
G00 Z2.0000
G00 X44.4500 Y45.7200
G01 Z-1.8000
G01 Z0
G00 Z2.0000
G00 X45.7200 Y48.2600
G01 Z-1.8000
G01 Z0
G00 Z2.0000
G00 X45.7200 Y52.0700
G01 Z-1.8000
G01 Z0
G00 Z2.0000
G00 X43.1800 Y52.0700
G01 Z-1.8000
G01 Z0
G00 Z2.0000
G00 X40.6400 Y52.0700
G01 Z-1.8000
G01 Z0
G00 Z2.0000
G00 X38.1000 Y52.0700
G01 Z-1.8000
G01 Z0
G00 Z2.0000
G00 X35.5600 Y52.0700
G01 Z-1.8000
G01 Z0
G00 Z2.0000
G00 X33.0200 Y52.0700
G01 Z-1.8000
G01 Z0
G00 Z2.0000
G00 X30.4800 Y52.0700
G01 Z-1.8000
G01 Z0
G00 Z2.0000
G00 X27.9400 Y52.0700
G01 Z-1.8000
G01 Z0
G00 Z2.0000
G00 X25.4000 Y52.0700
G01 Z-1.8000
G01 Z0
G00 Z2.0000
G00 X22.8600 Y52.0700
G01 Z-1.8000
G01 Z0
G00 Z2.0000
G00 X20.3200 Y52.0700
G01 Z-1.8000
G01 Z0
G00 Z2.0000
G00 X17.7800 Y52.0700
G01 Z-1.8000
G01 Z0
G00 Z2.0000
G00 X15.2400 Y52.0700
G01 Z-1.8000
G01 Z0
G00 Z2.0000
G00 X12.7000 Y52.0700
G01 Z-1.8000
G01 Z0
G00 Z2.0000
G00 X10.1600 Y41.9100
G01 Z-1.8000
G01 Z0
G00 Z2.0000
G00 X10.1600 Y39.3700
G01 Z-1.8000
G01 Z0
G00 Z2.0000
G00 X12.7000 Y29.2100
G01 Z-1.8000
G01 Z0
G00 Z2.0000
G00 X15.2400 Y29.2100
G01 Z-1.8000
G01 Z0
G00 Z2.0000
G00 X17.7800 Y29.2100
G01 Z-1.8000
G01 Z0
G00 Z2.0000
G00 X20.3200 Y29.2100
G01 Z-1.8000
G01 Z0
G00 Z2.0000
G00 X22.8600 Y29.2100
G01 Z-1.8000
G01 Z0
G00 Z2.0000
G00 X25.4000 Y29.2100
G01 Z-1.8000
G01 Z0
G00 Z2.0000
G00 X22.8600 Y22.8600
G01 Z-1.8000
G01 Z0
G00 Z2.0000
G00 X26.6700 Y16.5100
G01 Z-1.8000
G01 Z0
G00 Z2.0000
G00 X29.2100 Y16.5100
G01 Z-1.8000
G01 Z0
G00 Z2.0000
G00 X31.7500 Y16.5100
G01 Z-1.8000
G01 Z0
G00 Z2.0000
G00 X38.1000 Y8.8900
G01 Z-1.8000
G01 Z0
G00 Z2.0000
G00 X12.7000 Y8.8900
G01 Z-1.8000
G01 Z0
G00 Z2.0000
G00 X3.8100 Y3.8100
G01 Z-1.8000
G01 Z0
G00 Z2.0000
G00 X10.1600 Y13.9700
G01 Z-1.8000
G01 Z0
G00 Z2.0000
G00 X10.1600 Y16.5100
G01 Z-1.8000
G01 Z0
G00 Z2.0000
G00 X10.1600 Y19.0500
G01 Z-1.8000
G01 Z0
G00 Z2.0000
G00 X12.7000 Y22.8600
G01 Z-1.8000
G01 Z0
G00 Z2.0000
G00 X10.1600 Y29.2100
G01 Z-1.8000
G01 Z0
G00 Z2.0000
M05
G00 Z0.50


